; generated by PrusaSlicer 2.5.0+win64 on 2023-01-19 at 16:06:20 UTC


;
;

;
;
; 

; external perimeters extrusion width = 0.45mm
; perimeters extrusion width = 0.45mm
; infill extrusion width = 0.45mm
; solid infill extrusion width = 0.45mm
; top infill extrusion width = 0.40mm
; first layer extrusion width = 0.42mm

; external perimeters extrusion width = 0.45mm
; perimeters extrusion width = 0.45mm
; infill extrusion width = 0.45mm
; solid infill extrusion width = 0.45mm
; top infill extrusion width = 0.40mm
; first layer extrusion width = 0.42mm

; external perimeters extrusion width = 0.45mm
; perimeters extrusion width = 0.45mm
; infill extrusion width = 0.45mm
; solid infill extrusion width = 0.45mm
; top infill extrusion width = 0.40mm
; first layer extrusion width = 0.42mm

; external perimeters extrusion width = 0.45mm
; perimeters extrusion width = 0.45mm
; infill extrusion width = 0.45mm
; solid infill extrusion width = 0.45mm
; top infill extrusion width = 0.40mm
; first layer extrusion width = 0.42mm

; external perimeters extrusion width = 0.45mm
; perimeters extrusion width = 0.45mm
; infill extrusion width = 0.45mm
; solid infill extrusion width = 0.45mm
; top infill extrusion width = 0.40mm
; first layer extrusion width = 0.42mm

; external perimeters extrusion width = 0.45mm
; perimeters extrusion width = 0.45mm
; infill extrusion width = 0.45mm
; solid infill extrusion width = 0.45mm
; top infill extrusion width = 0.40mm
; first layer extrusion width = 0.42mm

; external perimeters extrusion width = 0.45mm
; perimeters extrusion width = 0.45mm
; infill extrusion width = 0.45mm
; solid infill extrusion width = 0.45mm
; top infill extrusion width = 0.40mm
; first layer extrusion width = 0.42mm

; external perimeters extrusion width = 0.45mm
; perimeters extrusion width = 0.45mm
; infill extrusion width = 0.45mm
; solid infill extrusion width = 0.45mm
; top infill extrusion width = 0.40mm
; first layer extrusion width = 0.42mm

; external perimeters extrusion width = 0.45mm
; perimeters extrusion width = 0.45mm
; infill extrusion width = 0.45mm
; solid infill extrusion width = 0.45mm
; top infill extrusion width = 0.40mm
; first layer extrusion width = 0.42mm

; external perimeters extrusion width = 0.45mm
; perimeters extrusion width = 0.45mm
; infill extrusion width = 0.45mm
; solid infill extrusion width = 0.45mm
; top infill extrusion width = 0.40mm
; first layer extrusion width = 0.42mm

; external perimeters extrusion width = 0.45mm
; perimeters extrusion width = 0.45mm
; infill extrusion width = 0.45mm
; solid infill extrusion width = 0.45mm
; top infill extrusion width = 0.40mm
; first layer extrusion width = 0.42mm

; external perimeters extrusion width = 0.45mm
; perimeters extrusion width = 0.45mm
; infill extrusion width = 0.45mm
; solid infill extrusion width = 0.45mm
; top infill extrusion width = 0.40mm
; first layer extrusion width = 0.42mm

; external perimeters extrusion width = 0.45mm
; perimeters extrusion width = 0.45mm
; infill extrusion width = 0.45mm
; solid infill extrusion width = 0.45mm
; top infill extrusion width = 0.40mm
; first layer extrusion width = 0.42mm

; external perimeters extrusion width = 0.45mm
; perimeters extrusion width = 0.45mm
; infill extrusion width = 0.45mm
; solid infill extrusion width = 0.45mm
; top infill extrusion width = 0.40mm
; first layer extrusion width = 0.42mm

; external perimeters extrusion width = 0.45mm
; perimeters extrusion width = 0.45mm
; infill extrusion width = 0.45mm
; solid infill extrusion width = 0.45mm
; top infill extrusion width = 0.40mm
; first layer extrusion width = 0.42mm

; external perimeters extrusion width = 0.45mm
; perimeters extrusion width = 0.45mm
; infill extrusion width = 0.45mm
; solid infill extrusion width = 0.45mm
; top infill extrusion width = 0.40mm
; first layer extrusion width = 0.42mm

M73 P0 R48
M201 X2500 Y2500 Z400 E5000 ; sets maximum accelerations, mm/sec^2
M203 X180 Y180 Z12 E80 ; sets maximum feedrates, mm / sec
M204 P1250 R1250 T2500 ; sets acceleration (P, T) and retract acceleration (R), mm/sec^2
M205 X8.00 Y8.00 Z2.00 E10.00 ; sets the jerk limits, mm/sec
M205 S0 T0 ; sets the minimum extruding and travel feed rate, mm/sec
M107
;TYPE:Custom
M862.3 P "MINI" ; printer model check
G90 ; use absolute coordinates
M83 ; extruder relative mode
M104 S170 ; set extruder temp for bed leveling
M140 S60 ; set bed temp
M109 R170 ; wait for bed leveling temp
M190 S60 ; wait for bed temp
M204 T1250 ; set travel acceleration
G28 ; home all without mesh bed level
G29 ; mesh bed leveling 
M204 T2500 ; restore travel acceleration
M104 S215 ; set extruder temp
G92 E0
G1 Y-2 X179 F2400
G1 Z3 F720
M109 S215 ; wait for extruder temp

; intro line
G1 X170 F1000
G1 Z0.2 F720
G1 X110 E8 F900
G1 X40 E10 F700
G92 E0

M221 S95 ; set flow
G21 ; set units to millimeters
G90 ; use absolute coordinates
M83 ; use relative distances for extrusion
M900 K0.2 ; Filament gcode LA 1.5
; ; Filament gcode LA 1.0
M107
;LAYER_CHANGE
;Z:0.2
;HEIGHT:0.2
;BEFORE_LAYER_CHANGE
G92 E0.0
;0.2


G1 E-3.2 F4200
G1 Z.2 F720
;AFTER_LAYER_CHANGE
;0.2
G1 Z.4
G1 X27.322 Y19.756 F9000
G1 Z.2 F720
G1 E3.2 F2400
M204 P800
;TYPE:Skirt/Brim
;WIDTH:0.42
G1 F1200
G1 X28.371 Y18.883 E.04278
G1 X29.261 Y18.694 E.02852
G1 X111.048 Y17.287 E2.56476
G1 X161.041 Y17.286 E1.56749
G1 X162.348 Y17.678 E.04278
G1 X163.224 Y18.724 E.04278
G1 X163.416 Y19.568 E.02713
G1 X164.202 Y39.063 E.61178
G1 X165.392 Y152.179 E3.54686
G1 X165.44 Y163.656 E.35986
M73 P1 R48
G1 X165.351 Y165.016 E.04274
G1 X165.188 Y165.82 E.02571
G1 X164.469 Y167.021 E.04388
G1 X163.4 Y167.594 E.03804
G1 X162.671 Y167.69 E.02305
G1 X80.699 Y169.1 E2.57056
G1 X31.805 Y169.1 E1.53303
G1 X30.891 Y169.001 E.02882
G1 X29.852 Y168.456 E.03681
G1 X29.103 Y167.228 E.04509
G1 X28.919 Y166.206 E.03254
G1 X27.836 Y145.492 E.65036
G1 X27.61 Y127.595 E.56122
G1 X26.877 Y32.551 E2.98011
G1 X26.925 Y21.061 E.36027
G1 X27.304 Y19.813 E.0409
M204 P1000
; printing object Improved_Pegboard_Clip.stl id:8 copy 0
G1 E-2.24 F4200
;WIPE_START
G1 F7200
G1 X28.371 Y18.883 E-.78411
G1 X28.597 Y18.835 E-.12789
;WIPE_END
G1 E-.048 F4200
G1 Z.4 F720
G1 X80.041 Y158.54 F9000
G1 Z.2 F720
G1 E3.2 F2400
M204 P800
;TYPE:Perimeter
;WIDTH:0.417048
G1 F1200
G1 X80.389 Y158.52 E.01084
G1 X80.415 Y158.546 E.00115
G1 X80.415 Y164.891 E.1974
;WIDTH:0.422738
G1 X80.412 Y165.022 E.00413
;WIDTH:0.466696
G1 X80.39 Y165.239 E.00768
;WIDTH:0.510653
G1 X80.368 Y165.456 E.00848
;WIDTH:0.55461
G1 X80.346 Y165.673 E.00928
G1 X80.22 Y165.797 E.00752
G1 X79.838 Y165.797 E.01627
;WIDTH:0.506585
G1 X79.597 Y165.805 E.00927
;WIDTH:0.458559
G1 X79.357 Y165.812 E.00831
;WIDTH:0.411257
G1 X61.462 Y163.492 E.55267
G1 X60.755 Y163.387 E.02189
;WIDTH:0.44374
G1 X60.629 Y163.362 E.00427
;WIDTH:0.484752
G1 X60.504 Y163.336 E.0047
;WIDTH:0.525764
G1 X60.378 Y163.311 E.00514
;WIDTH:0.566775
G1 X60.253 Y163.285 E.00558
G1 X60.153 Y163.402 E.00671
;WIDTH:0.521109
G1 X60.053 Y163.519 E.00613
;WIDTH:0.475442
G1 X59.953 Y163.636 E.00554
;WIDTH:0.429775
G1 X59.853 Y163.754 E.00496
;WIDTH:0.384296
G1 X59.336 Y164.452 E.02465
G1 X59.175 Y164.618 E.00657
G1 X58.496 Y165.159 E.02466
;WIDTH:0.383973
G1 X58.296 Y165.279 E.0066
G1 X57.5 Y165.625 E.02463
G1 X57.277 Y165.689 E.00657
G1 X56.417 Y165.818 E.02465
G1 X56.185 Y165.822 E.00659
G1 X55.322 Y165.723 E.02463
;WIDTH:0.38411
G1 X55.097 Y165.667 E.00657
G1 X54.289 Y165.349 E.02465
G1 X54.086 Y165.237 E.00658
;WIDTH:0.384296
G1 X53.388 Y164.72 E.02465
G1 X53.221 Y164.559 E.00657
G1 X52.68 Y163.879 E.02466
;WIDTH:0.384051
G1 X52.561 Y163.681 E.00656
;WIDTH:0.427921
G1 X52.474 Y163.582 E.00421
;WIDTH:0.471791
G1 X52.387 Y163.484 E.00469
;WIDTH:0.515661
G1 X52.3 Y163.385 E.00517
;WIDTH:0.559531
G1 X52.213 Y163.286 E.00565
G1 X52.083 Y163.314 E.00571
;WIDTH:0.520595
G1 X51.953 Y163.341 E.00528
;WIDTH:0.481659
G1 X51.823 Y163.368 E.00485
;WIDTH:0.442723
G1 X51.693 Y163.396 E.00442
;WIDTH:0.411677
G1 X51.042 Y163.492 E.02018
;WIDTH:0.414907
G1 X33.119 Y165.813 E.55899
;WIDTH:0.446596
G1 X32.914 Y165.811 E.0069
;WIDTH:0.484117
G1 X32.708 Y165.81 E.00754
;WIDTH:0.521638
G1 X32.502 Y165.808 E.00819
;WIDTH:0.559159
G1 X32.297 Y165.806 E.00883
G1 X32.162 Y165.705 E.00726
G1 X32.138 Y165.328 E.0162
;WIDTH:0.511512
G1 X32.114 Y165.11 E.00856
;WIDTH:0.463864
G1 X32.09 Y164.891 E.00769
;WIDTH:0.417022
G1 X32.089 Y158.546 E.19738
G1 X32.443 Y158.525 E.01103
G1 X32.463 Y158.711 E.00583
G1 X32.463 Y164.891 E.19225
;WIDTH:0.463864
G1 X32.507 Y165.046 E.00565
;WIDTH:0.511512
G1 X32.551 Y165.202 E.00629
;WIDTH:0.559159
G1 X32.595 Y165.357 E.00693
G1 X32.717 Y165.38 E.00532
;WIDTH:0.521638
G1 X32.839 Y165.403 E.00494
;WIDTH:0.484117
G1 X32.961 Y165.426 E.00455
;WIDTH:0.446596
G1 X33.083 Y165.448 E.00416
;WIDTH:0.414907
G1 X50.994 Y163.126 E.55865
;WIDTH:0.411677
G1 X51.642 Y163.038 E.02005
;WIDTH:0.442723
G1 X51.749 Y162.998 E.00381
;WIDTH:0.481659
G1 X51.857 Y162.958 E.00418
;WIDTH:0.520595
G1 X51.964 Y162.917 E.00455
;WIDTH:0.559531
G1 X52.071 Y162.877 E.00492
G1 X52.137 Y162.773 E.00526
G1 X52.2 Y162.471 E.01325
G1 X52.378 Y162.471 E.00763
G1 X52.512 Y162.933 E.02063
G1 X52.621 Y163.116 E.00917
;WIDTH:0.515654
G1 X52.729 Y163.3 E.00839
;WIDTH:0.471777
G1 X52.838 Y163.483 E.00761
;WIDTH:0.4279
G1 X52.947 Y163.667 E.00683
;WIDTH:0.384293
G1 X53.591 Y164.446 E.02868
G1 X54.414 Y165.032 E.02868
;WIDTH:0.384021
G1 X55.361 Y165.384 E.02866
G1 X56.367 Y165.48 E.02867
G1 X57.364 Y165.312 E.02868
G1 X58.283 Y164.892 E.02867
;WIDTH:0.384291
G1 X59.062 Y164.249 E.02868
;WIDTH:0.400979
G1 X59.668 Y163.397 E.03111
;WIDTH:0.442428
G1 X59.736 Y163.282 E.00444
;WIDTH:0.483877
G1 X59.803 Y163.167 E.0049
;WIDTH:0.525326
G1 X59.871 Y163.052 E.00536
;WIDTH:0.566775
G1 X59.939 Y162.937 E.00582
G1 X60.091 Y162.489 E.0206
G1 X60.26 Y162.475 E.00736
G1 X60.26 Y162.555 E.00348
G1 X60.389 Y162.872 E.01494
G1 X60.498 Y162.913 E.00504
;WIDTH:0.525791
G1 X60.606 Y162.953 E.00465
;WIDTH:0.484806
G1 X60.715 Y162.994 E.00425
;WIDTH:0.443821
G1 X60.823 Y163.034 E.00386
;WIDTH:0.411257
G1 X79.405 Y165.448 E.57388
;WIDTH:0.416177
G1 X79.502 Y165.455 E.00303
;WIDTH:0.462322
G1 X79.639 Y165.419 E.00494
;WIDTH:0.508466
G1 X79.776 Y165.384 E.00548
;WIDTH:0.55461
G1 X79.914 Y165.349 E.00603
G1 X79.956 Y165.197 E.00674
;WIDTH:0.508756
G1 X79.998 Y165.044 E.00614
;WIDTH:0.462902
G1 X80.041 Y164.891 E.00553
;WIDTH:0.417048
G1 X80.041 Y158.6 E.19571
M204 P1000
G1 X79.699 Y158.144 F9000
M204 P800
;TYPE:External perimeter
;WIDTH:0.419999
G1 F1200
G1 X80.749 Y158.144 E.0329
G1 X80.791 Y158.546 E.01267
G1 X80.791 Y165.561 E.21994
G1 X80.749 Y166.079 E.0163
G1 X80.528 Y166.099 E.00698
G1 X80.424 Y166.252 E.00579
G1 X79.506 Y166.207 E.02881
G1 X60.375 Y163.719 E.60491
G1 X60.274 Y163.788 E.00383
G1 X59.527 Y164.797 E.03936
G1 X58.59 Y165.543 E.03756
G1 X57.492 Y166.02 E.03753
G1 X56.308 Y166.197 E.03754
G1 X55.118 Y166.061 E.03755
G1 X54.004 Y165.623 E.03753
G1 X53.042 Y164.911 E.03753
G1 X52.399 Y164.103 E.03238
G1 X52.233 Y163.828 E.01007
G1 X52.105 Y163.72 E.00524
G1 X52.031 Y163.717 E.00232
G1 X51.097 Y163.861 E.02966
G1 X33.581 Y166.14 E.5538
G1 X32.091 Y166.257 E.04687
G1 X32.003 Y166.115 E.00523
G1 X31.751 Y166.079 E.00799
G1 X31.715 Y165.812 E.00844
G1 X31.713 Y158.711 E.22266
G1 X31.755 Y158.145 E.01778
G1 X32.799 Y158.151 E.03273
G1 X32.839 Y158.524 E.01176
G1 X32.839 Y164.891 E.19964
G1 X32.899 Y165.029 E.00473
G1 X33.051 Y165.078 E.00502
G1 X50.946 Y162.757 E.56579
G1 X51.663 Y162.65 E.02271
M73 P1 R47
G1 X51.755 Y162.525 E.00488
G1 X51.692 Y162.025 E.0158
G1 X52.763 Y162.025 E.03358
G1 X52.832 Y162.486 E.01463
G1 X52.922 Y162.754 E.00887
G1 X53.228 Y163.443 E.02364
G1 X53.805 Y164.157 E.02877
G1 X54.545 Y164.697 E.02876
G1 X55.401 Y165.028 E.02877
G1 X56.314 Y165.125 E.02877
G1 X57.221 Y164.983 E.02878
G1 X58.059 Y164.612 E.02877
G1 X58.773 Y164.035 E.02877
G1 X59.314 Y163.294 E.02876
G1 X59.632 Y162.486 E.02724
G1 X59.691 Y162.025 E.01458
G1 X60.757 Y162.025 E.03342
G1 X60.707 Y162.46 E.01374
G1 X60.746 Y162.597 E.00445
G1 X60.871 Y162.668 E.00451
G1 X79.452 Y165.078 E.5875
G1 X79.607 Y165.028 E.0051
M73 P2 R47
G1 X79.665 Y164.891 E.00465
G1 X79.665 Y158.707 E.19391
G1 X79.696 Y158.204 E.01579
M204 P1000
G1 X80.045 Y158.345 F9000
G1 E-2.24 F4200
;WIPE_START
G1 F7200
G1 X80.749 Y158.144 E-.58451
G1 X80.791 Y158.546 E-.22388
G1 X80.791 Y158.733 E-.10361
;WIPE_END
G1 E-.048 F4200
G1 Z.4 F720
G1 X33.483 Y156.873 F9000
G1 Z.2 F720
G1 E3.2 F2400
M204 P800
;TYPE:Perimeter
G1 F1200
G1 X32.778 Y156.828 E.02214
G1 X32.061 Y156.826 E.02248
G1 X32.059 Y156.086 E.02322
G1 X32.014 Y155.404 E.02141
G1 X33.081 Y156.521 E.04842
G1 X33.438 Y156.834 E.01487
M204 P1000
G1 X34.761 Y157.398 F9000
M204 P800
;TYPE:External perimeter
G1 F1200
G1 X34.298 Y157.402 E.01452
G1 X33.804 Y157.297 E.01582
G1 X33.286 Y157.228 E.01639
G1 X32.777 Y157.205 E.01598
G1 X31.685 Y157.202 E.03423
G1 X31.682 Y156.103 E.03448
G1 X31.64 Y155.449 E.02053
G1 X31.49 Y154.608 E.02678
G1 X31.489 Y154.126 E.01512
G1 X31.817 Y154.466 E.01481
G1 X32.338 Y155.207 E.02841
G1 X33.321 Y156.229 E.04445
G1 X33.703 Y156.568 E.01602
G1 X34.422 Y157.07 E.02749
G1 X34.718 Y157.357 E.01293
M204 P1000
G1 X34.371 Y157.312 F9000
G1 E-2.24 F4200
;WIPE_START
G1 F7200
G1 X34.298 Y157.402 E-.23412
G1 X33.804 Y157.297 E-.27967
G1 X33.286 Y157.228 E-.2897
G1 X33.091 Y157.219 E-.10851
;WIPE_END
G1 E-.048 F4200
G1 Z.4 F720
G1 X32.166 Y156.027 F9000
G1 Z.2 F720
G1 E3.2 F2400
M204 P800
;TYPE:Solid infill
;WIDTH:0.495415
G1 F1200
G1 X32.859 Y156.721 E.0369
M204 P1000
G1 E-2.24 F4200
;WIPE_START
G1 F7200
G1 X32.166 Y156.027 E-.54354
;WIPE_END
G1 E-.41646 F4200
G1 Z.4 F720
G1 X79.021 Y156.873 F9000
G1 Z.2 F720
G1 E3.2 F2400
M204 P800
;TYPE:Perimeter
;WIDTH:0.419999
G1 F1200
G1 X79.551 Y156.386 E.02257
G1 X80.026 Y155.909 E.0211
G1 X80.49 Y155.405 E.0215
G1 X80.445 Y156.086 E.0214
G1 X80.443 Y156.826 E.02322
G1 X79.702 Y156.829 E.02322
G1 X79.081 Y156.869 E.01952
M204 P1000
G1 X77.742 Y157.398 F9000
M204 P800
;TYPE:External perimeter
G1 F1200
G1 X78.082 Y157.07 E.01481
G1 X78.821 Y156.551 E.02833
G1 X79.293 Y156.11 E.02024
G1 X80.184 Y155.184 E.04028
G1 X80.686 Y154.466 E.0275
G1 X81.015 Y154.126 E.01481
G1 X81.018 Y154.589 E.01452
G1 X80.913 Y155.083 E.01582
G1 X80.844 Y155.601 E.01639
G1 X80.822 Y156.111 E.01598
G1 X80.819 Y157.202 E.03423
G1 X79.719 Y157.206 E.03448
G1 X79.066 Y157.248 E.02052
G1 X78.225 Y157.398 E.02679
G1 X77.802 Y157.398 E.01323
M204 P1000
G1 X78.083 Y157.189 F9000
G1 E-2.24 F4200
;WIPE_START
G1 F7200
G1 X78.082 Y157.07 E-.23892
G1 X78.821 Y156.551 E-.50071
G1 X79.049 Y156.339 E-.17237
;WIPE_END
G1 E-.048 F4200
G1 Z.4 F720
G1 X79.902 Y156.207 F9000
G1 Z.2 F720
G1 E3.2 F2400
M204 P800
;TYPE:Solid infill
;WIDTH:0.495415
G1 F1200
G1 X80.33 Y156.634 E.02276
M204 P1000
; stop printing object Improved_Pegboard_Clip.stl id:8 copy 0
; printing object Improved_Pegboard_Clip.stl id:9 copy 0
G1 E-2.24 F4200
;WIPE_START
G1 F7200
G1 X79.902 Y156.207 E-.33523
;WIPE_END
G1 E-.62477 F4200
G1 Z.4 F720
G1 X79.026 Y138.929 F9000
G1 Z.2 F720
G1 E3.2 F2400
M204 P800
;TYPE:Perimeter
;WIDTH:0.417048
G1 F1200
G1 X79.374 Y138.909 E.01084
G1 X79.4 Y138.935 E.00115
G1 X79.4 Y145.28 E.1974
;WIDTH:0.422738
G1 X79.397 Y145.411 E.00413
;WIDTH:0.466696
G1 X79.375 Y145.628 E.00768
;WIDTH:0.510653
G1 X79.353 Y145.845 E.00848
;WIDTH:0.55461
G1 X79.331 Y146.062 E.00928
G1 X79.205 Y146.186 E.00752
G1 X78.823 Y146.186 E.01627
;WIDTH:0.506585
G1 X78.582 Y146.194 E.00927
;WIDTH:0.458559
G1 X78.342 Y146.201 E.00831
;WIDTH:0.411257
G1 X60.447 Y143.881 E.55267
G1 X59.74 Y143.776 E.02189
;WIDTH:0.44374
G1 X59.614 Y143.751 E.00427
;WIDTH:0.484752
G1 X59.489 Y143.725 E.0047
;WIDTH:0.525764
G1 X59.363 Y143.699 E.00514
;WIDTH:0.566775
G1 X59.238 Y143.674 E.00558
G1 X59.138 Y143.791 E.00671
;WIDTH:0.521109
G1 X59.038 Y143.908 E.00613
;WIDTH:0.475442
G1 X58.938 Y144.025 E.00554
;WIDTH:0.429775
G1 X58.838 Y144.142 E.00496
;WIDTH:0.384296
G1 X58.321 Y144.841 E.02465
G1 X58.16 Y145.007 E.00657
G1 X57.481 Y145.548 E.02466
;WIDTH:0.383973
