; generated by PrusaSlicer 2.4.2+win64 on 2022-09-09 at 13:51:23 UTC


;
;

;
;
; 

; external perimeters extrusion width = 0.45mm
; perimeters extrusion width = 0.45mm
; infill extrusion width = 0.45mm
; solid infill extrusion width = 0.45mm
; top infill extrusion width = 0.40mm
; first layer extrusion width = 0.42mm

; external perimeters extrusion width = 0.45mm
; perimeters extrusion width = 0.45mm
; infill extrusion width = 0.45mm
; solid infill extrusion width = 0.45mm
; top infill extrusion width = 0.40mm
; first layer extrusion width = 0.42mm

; external perimeters extrusion width = 0.45mm
; perimeters extrusion width = 0.45mm
; infill extrusion width = 0.45mm
; solid infill extrusion width = 0.45mm
; top infill extrusion width = 0.40mm
; first layer extrusion width = 0.42mm

M73 P0 R63
M201 X2500 Y2500 Z400 E5000 ; sets maximum accelerations, mm/sec^2
M203 X180 Y180 Z12 E80 ; sets maximum feedrates, mm / sec
M204 P1250 R1250 T2500 ; sets acceleration (P, T) and retract acceleration (R), mm/sec^2
M205 X8.00 Y8.00 Z2.00 E10.00 ; sets the jerk limits, mm/sec
M205 S0 T0 ; sets the minimum extruding and travel feed rate, mm/sec
M107
;TYPE:Custom
M862.3 P "MINI" ; printer model check
G90 ; use absolute coordinates
M83 ; extruder relative mode
M104 S170 ; set extruder temp for bed leveling
M140 S60 ; set bed temp
M109 R170 ; wait for bed leveling temp
M190 S60 ; wait for bed temp
M204 T1250 ; set travel acceleration
G28 ; home all without mesh bed level
G29 ; mesh bed leveling 
M204 T2500 ; restore travel acceleration
M104 S215 ; set extruder temp
G92 E0
G1 Y-2 X179 F2400
G1 Z3 F720
M109 S215 ; wait for extruder temp

; intro line
M73 P0 R62
G1 X170 F1000
G1 Z0.2 F720
G1 X110 E8 F900
G1 X40 E10 F700
G92 E0

M221 S95 ; set flow
G21 ; set units to millimeters
G90 ; use absolute coordinates
M83 ; use relative distances for extrusion
M900 K0.2 ; Filament gcode LA 1.5
; ; Filament gcode LA 1.0
M107
;LAYER_CHANGE
;Z:0.2
;HEIGHT:0.2
;BEFORE_LAYER_CHANGE
G92 E0.0
;0.2


G1 E-3.2 F4200
G1 Z.2 F720
;AFTER_LAYER_CHANGE
;0.2
G1 Z.4
G1 X36.241 Y62.503 F9000
G1 Z.2 F720
G1 E3.2 F2400
M204 P800
;TYPE:Skirt/Brim
;WIDTH:0.42
G1 F1200
G1 X37.467 Y61.793 E.04444
G1 X39.206 Y60.957 E.06049
G1 X41.004 Y60.259 E.06049
G1 X42.852 Y59.702 E.06049
G1 X44.736 Y59.29 E.06049
G1 X46.496 Y59.043 E.0557
G1 X49.63 Y58.91 E.09836
G1 X52.422 Y59.127 E.08782
G1 X54.413 Y59.478 E.06338
G1 X96.046 Y69.419 E1.34208
G1 X97.786 Y70.081 E.05835
G1 X99.481 Y71.045 E.06114
G1 X100.937 Y72.203 E.05835
G1 X102.435 Y73.863 E.0701
G1 X103.253 Y75.103 E.04658
G1 X104.026 Y76.697 E.05555
G1 X104.493 Y78.108 E.04658
G1 X104.824 Y79.848 E.05555
G1 X107.571 Y118.638 E1.21927
G1 X107.483 Y120.123 E.04663
G1 X107.243 Y121.485 E.04337
G1 X106.875 Y122.749 E.0413
G1 X106.231 Y124.259 E.05147
G1 X105.575 Y125.398 E.04121
G1 X104.756 Y126.517 E.04346
G1 X103.877 Y127.478 E.04085
G1 X102.624 Y128.557 E.05183
G1 X100.795 Y129.695 E.06757
G1 X99.102 Y130.402 E.0575
G1 X97.074 Y130.892 E.06542
G1 X94.912 Y131.032 E.06794
G1 X44.491 Y127.264 E1.58532
G1 X43.823 Y127.089 E.02167
G1 X43.041 Y126.726 E.02702
G1 X25.351 Y115.79 E.65209
G1 X24.446 Y114.769 E.04278
G1 X24.224 Y113.768 E.03216
G1 X24.245 Y82.77 E.97191
G1 X24.398 Y80.847 E.06049
G1 X24.885 Y78.089 E.08782
G1 X25.427 Y76.142 E.06338
G1 X26.436 Y73.529 E.08782
G1 X27.298 Y71.803 E.06049
G1 X28.292 Y70.15 E.06049
G1 X30.074 Y67.755 E.09359
G1 X31.374 Y66.329 E.06049
G1 X32.779 Y65.008 E.06049
G1 X34.283 Y63.799 E.06049
G1 X35.798 Y62.76 E.0576
G1 X36.189 Y62.534 E.01417
M204 P1000
; printing object choker.STL id:2 copy 0
G1 E-2.24 F4200
;WIPE_START
G1 F7200
G1 X37.467 Y61.793 E-.81871
G1 X37.619 Y61.72 E-.09329
;WIPE_END
G1 E-.048 F4200
G1 Z.4 F720
G1 X44.937 Y109.793 F9000
G1 Z.2 F720
G1 E3.2 F2400
M204 P800
;TYPE:Perimeter
G1 F1200
G1 X53.266 Y109.793 E.26113
G1 X53.266 Y123.121 E.4179
G1 X44.937 Y123.121 E.26113
G1 X44.937 Y109.853 E.41602
M204 P1000
G1 X45.314 Y110.17 F9000
M204 P800
G1 F1200
G1 X52.888 Y110.17 E.23748
G1 X52.888 Y122.744 E.39425
G1 X45.314 Y122.744 E.23748
G1 X45.314 Y110.23 E.39237
M204 P1000
G1 X45.691 Y110.547 F9000
M204 P800
;TYPE:External perimeter
G1 F1200
G1 X52.511 Y110.547 E.21384
G1 X52.511 Y122.367 E.37061
G1 X45.691 Y122.367 E.21384
G1 X45.691 Y110.607 E.36873
M204 P1000
G1 X45.622 Y110.153 F9000
G1 E-2.24 F4200
;WIPE_START
G1 F7200
G1 X47.337 Y110.592 E-.912
;WIPE_END
G1 E-.048 F4200
G1 Z.4 F720
G1 X66.426 Y73.779 F9000
G1 Z.2 F720
G1 E3.2 F2400
M204 P800
;TYPE:Perimeter
G1 F1200
G1 X67.266 Y74.004 E.02726
G1 X67.266 Y83.794 E.30696
G1 X67.248 Y84.585 E.02481
G1 X67.195 Y85.387 E.02521
G1 X67.106 Y86.186 E.02521
G1 X66.982 Y86.981 E.02521
G1 X66.823 Y87.769 E.02521
G1 X66.629 Y88.549 E.02521
M73 P1 R62
G1 X66.401 Y89.32 E.02521
G1 X66.139 Y90.08 E.02521
G1 X65.843 Y90.828 E.02521
G1 X65.515 Y91.562 E.02521
G1 X65.154 Y92.281 E.02521
G1 X64.762 Y92.983 E.02521
G1 X64.34 Y93.667 E.02521
G1 X63.887 Y94.332 E.02521
G1 X63.406 Y94.976 E.02521
G1 X62.896 Y95.598 E.02521
G1 X62.36 Y96.197 E.02521
G1 X61.797 Y96.772 E.02521
G1 X61.21 Y97.321 E.02521
G1 X60.599 Y97.843 E.02521
G1 X59.965 Y98.338 E.02521
G1 X59.311 Y98.805 E.02521
G1 X58.636 Y99.242 E.02521
G1 X57.942 Y99.649 E.02521
G1 X57.231 Y100.025 E.02521
G1 X56.504 Y100.368 E.02521
G1 X55.763 Y100.68 E.02521
G1 X55.009 Y100.958 E.02521
G1 X54.243 Y101.203 E.02521
G1 X53.467 Y101.413 E.02521
G1 X52.682 Y101.589 E.02521
G1 X51.89 Y101.73 E.02521
G1 X51.093 Y101.836 E.02521
G1 X50.292 Y101.906 E.02521
G1 X49.489 Y101.941 E.02521
G1 X48.685 Y101.941 E.02521
G1 X47.882 Y101.904 E.02521
G1 X47.081 Y101.833 E.02521
G1 X46.284 Y101.726 E.02521
G1 X45.492 Y101.583 E.02521
G1 X44.708 Y101.406 E.02521
G1 X43.932 Y101.194 E.02521
G1 X43.167 Y100.949 E.02521
G1 X42.413 Y100.669 E.02521
G1 X41.672 Y100.357 E.02521
G1 X40.946 Y100.012 E.02521
G1 X40.235 Y99.635 E.02521
G1 X39.543 Y99.227 E.02521
G1 X38.868 Y98.789 E.02521
G1 X38.214 Y98.321 E.02521
G1 X37.581 Y97.825 E.02521
G1 X36.971 Y97.301 E.02521
G1 X36.385 Y96.751 E.02521
G1 X35.823 Y96.176 E.02521
G1 X35.288 Y95.576 E.02521
G1 X34.779 Y94.953 E.02521
G1 X34.299 Y94.308 E.02521
G1 X33.847 Y93.643 E.02521
G1 X33.425 Y92.957 E.02525
G1 X33.016 Y92.217 E.02653
G1 X32.676 Y91.536 E.02386
G1 X32.349 Y90.802 E.02521
G1 X32.054 Y90.053 E.02521
G1 X31.793 Y89.293 E.02521
G1 X31.566 Y88.521 E.02521
G1 X31.374 Y87.741 E.02521
G1 X31.216 Y86.952 E.02521
G1 X31.093 Y86.158 E.02521
G1 X31.006 Y85.358 E.02521
G1 X30.954 Y84.556 E.02521
G1 X30.937 Y83.754 E.02516
G1 X30.955 Y82.988 E.02402
G1 X30.955 Y73.999 E.28184
G1 X31.777 Y73.779 E.02668
G1 X31.358 Y72.215 E.05076
G1 X32.09 Y71.189 E.03953
G1 X32.536 Y70.609 E.02293
G1 X33.337 Y69.636 E.03953
G1 X34.956 Y69.636 E.05076
G1 X34.956 Y68.017 E.05076
G1 X35.929 Y67.215 E.03953
G1 X36.509 Y66.77 E.02293
G1 X37.535 Y66.038 E.03953
G1 X39.099 Y66.457 E.05076
G1 X39.518 Y64.893 E.05076
G1 X40.665 Y64.371 E.03953
G1 X41.341 Y64.091 E.02293
G1 X42.522 Y63.649 E.03953
G1 X43.924 Y64.458 E.05076
G1 X44.733 Y63.056 E.05076
G1 X45.977 Y62.849 E.03953
G1 X46.702 Y62.753 E.02293
G1 X47.957 Y62.632 E.03953
G1 X49.101 Y63.777 E.05076
G1 X50.246 Y62.632 E.05076
G1 X51.501 Y62.753 E.03953
G1 X52.226 Y62.849 E.02293
G1 X53.469 Y63.056 E.03953
G1 X54.279 Y64.458 E.05076
G1 X55.681 Y63.649 E.05076
G1 X56.862 Y64.091 E.03953
G1 X57.537 Y64.371 E.02293
G1 X58.685 Y64.893 E.03953
G1 X59.104 Y66.457 E.05076
G1 X60.667 Y66.038 E.05076
G1 X61.693 Y66.77 E.03953
G1 X62.274 Y67.215 E.02293
G1 X63.247 Y68.017 E.03953
G1 X63.247 Y69.636 E.05076
G1 X64.866 Y69.636 E.05076
G1 X65.667 Y70.609 E.03953
G1 X66.112 Y71.189 E.02293
G1 X66.845 Y72.215 E.03953
G1 X66.441 Y73.721 E.04888
M204 P1000
G1 X65.964 Y74.045 F9000
M204 P800
G1 F1200
G1 X66.888 Y74.293 E.03001
G1 X66.888 Y83.79 E.29776
G1 X66.871 Y84.568 E.02441
G1 X66.819 Y85.354 E.02469
G1 X66.732 Y86.136 E.02469
G1 X66.611 Y86.914 E.02469
G1 X66.455 Y87.686 E.02469
G1 X66.265 Y88.45 E.02469
G1 X66.041 Y89.205 E.02469
G1 X65.785 Y89.95 E.02469
G1 X65.495 Y90.682 E.02469
G1 X65.174 Y91.401 E.02469
G1 X64.821 Y92.105 E.02469
G1 X64.437 Y92.792 E.02469
G1 X64.023 Y93.462 E.02469
G1 X63.58 Y94.113 E.02469
G1 X63.109 Y94.744 E.02469
G1 X62.61 Y95.353 E.02469
G1 X62.085 Y95.939 E.02469
G1 X61.534 Y96.502 E.02469
G1 X60.959 Y97.04 E.02469
G1 X60.36 Y97.551 E.02469
G1 X59.74 Y98.036 E.02469
G1 X59.099 Y98.493 E.02469
G1 X58.438 Y98.921 E.02469
G1 X57.759 Y99.319 E.02469
G1 X57.062 Y99.687 E.02469
G1 X56.351 Y100.024 E.02469
G1 X55.625 Y100.329 E.02469
G1 X54.886 Y100.601 E.02469
G1 X54.136 Y100.841 E.02469
G1 X53.376 Y101.047 E.02469
G1 X52.608 Y101.219 E.02469
G1 X51.832 Y101.357 E.02469
G1 X51.052 Y101.461 E.02469
G1 X50.268 Y101.53 E.02469
G1 X49.481 Y101.564 E.02469
G1 X48.694 Y101.564 E.02469
G1 X47.907 Y101.528 E.02469
G1 X47.123 Y101.458 E.02469
G1 X46.342 Y101.353 E.02469
G1 X45.567 Y101.214 E.02469
G1 X44.799 Y101.04 E.02469
G1 X44.04 Y100.833 E.02469
G1 X43.29 Y100.592 E.02469
G1 X42.552 Y100.318 E.02469
G1 X41.826 Y100.012 E.02469
G1 X41.115 Y99.675 E.02469
G1 X40.42 Y99.306 E.02469
G1 X39.741 Y98.906 E.02469
G1 X39.081 Y98.477 E.02469
G1 X38.44 Y98.019 E.02469
G1 X37.821 Y97.533 E.02469
G1 X37.223 Y97.021 E.02469
G1 X36.649 Y96.482 E.02469
G1 X36.099 Y95.918 E.02469
G1 X35.574 Y95.331 E.02469
G1 X35.076 Y94.721 E.02469
G1 X34.606 Y94.09 E.02469
G1 X34.164 Y93.438 E.02469
G1 X33.751 Y92.767 E.02471
G1 X33.35 Y92.041 E.02601
G1 X33.017 Y91.375 E.02335
G1 X32.696 Y90.656 E.02469
G1 X32.408 Y89.923 E.02469
G1 X32.153 Y89.178 E.02469
G1 X31.931 Y88.423 E.02469
G1 X31.742 Y87.658 E.02469
G1 X31.587 Y86.886 E.02469
G1 X31.467 Y86.108 E.02469
G1 X31.381 Y85.326 E.02469
G1 X31.33 Y84.54 E.02469
G1 X31.314 Y83.754 E.02464
G1 X31.332 Y82.992 E.0239
G1 X31.332 Y74.288 E.2729
G1 X32.239 Y74.045 E.02943
G1 X31.768 Y72.289 E.057
G1 X32.394 Y71.413 E.03374
G1 X32.831 Y70.843 E.02252
G1 X33.515 Y70.013 E.03374
G1 X35.333 Y70.013 E.057
G1 X35.333 Y68.195 E.057
G1 X36.164 Y67.51 E.03374
G1 X36.734 Y67.073 E.02253
G1 X37.61 Y66.448 E.03374
G1 X39.366 Y66.918 E.057
G1 X39.836 Y65.162 E.057
G1 X40.816 Y64.716 E.03374
G1 X41.48 Y64.441 E.02253
G1 X42.487 Y64.064 E.03374
G1 X44.062 Y64.973 E.057
G1 X44.971 Y63.399 E.057
G1 X46.032 Y63.222 E.03374
G1 X46.745 Y63.128 E.02253
G1 X47.816 Y63.024 E.03374
G1 X49.101 Y64.31 E.057
G1 X50.387 Y63.024 E.057
G1 X51.458 Y63.128 E.03374
G1 X52.17 Y63.222 E.02253
G1 X53.232 Y63.399 E.03374
G1 X54.141 Y64.973 E.057
G1 X55.715 Y64.064 E.057
G1 X56.723 Y64.441 E.03374
G1 X57.387 Y64.716 E.02252
G1 X58.366 Y65.162 E.03374
G1 X58.837 Y66.918 E.057
G1 X60.593 Y66.448 E.057
G1 X61.469 Y67.073 E.03374
G1 X62.039 Y67.51 E.02252
G1 X62.87 Y68.195 E.03374
G1 X62.87 Y70.013 E.057
G1 X64.688 Y70.013 E.057
G1 X65.372 Y70.843 E.03374
G1 X65.809 Y71.413 E.02252
G1 X66.434 Y72.289 E.03374
G1 X65.979 Y73.987 E.05512
M204 P1000
G1 X66.511 Y74.582 F9000
M204 P800
;TYPE:External perimeter
G1 F1200
G1 X66.511 Y83.785 E.28855
G1 X66.494 Y84.551 E.02402
G1 X66.443 Y85.32 E.02416
G1 X66.358 Y86.086 E.02416
G1 X66.239 Y86.848 E.02416
G1 X66.087 Y87.603 E.02416
G1 X65.901 Y88.351 E.02416
G1 X65.682 Y89.09 E.02416
G1 X65.431 Y89.819 E.02416
G1 X65.148 Y90.536 E.02416
G1 X64.833 Y91.239 E.02416
G1 X64.488 Y91.928 E.02416
G1 X64.112 Y92.601 E.02416
G1 X63.707 Y93.257 E.02416
G1 X63.273 Y93.894 E.02416
G1 X62.812 Y94.511 E.02417
G1 X62.324 Y95.107 E.02416
G1 X61.809 Y95.681 E.02417
G1 X61.27 Y96.232 E.02416
G1 X60.707 Y96.758 E.02416
G1 X60.122 Y97.259 E.02416
G1 X59.514 Y97.734 E.02416
G1 X58.887 Y98.181 E.02416
G1 X58.24 Y98.6 E.02416
G1 X57.575 Y98.99 E.02416
G1 X56.894 Y99.35 E.02416
G1 X56.197 Y99.68 E.02417
G1 X55.486 Y99.978 E.02416
G1 X54.763 Y100.245 E.02416
G1 X54.029 Y100.479 E.02416
G1 X53.285 Y100.681 E.02416
G1 X52.533 Y100.849 E.02416
G1 X51.775 Y100.985 E.02416
G1 X51.011 Y101.086 E.02416
G1 X50.243 Y101.154 E.02416
G1 X49.473 Y101.187 E.02416
G1 X48.702 Y101.186 E.02416
G1 X47.932 Y101.152 E.02416
G1 X47.165 Y101.083 E.02417
G1 X46.401 Y100.98 E.02416
G1 X45.642 Y100.844 E.02416
G1 X44.891 Y100.674 E.02416
G1 X44.147 Y100.471 E.02416
G1 X43.413 Y100.236 E.02416
G1 X42.691 Y99.968 E.02416
G1 X41.981 Y99.668 E.02417
G1 X41.284 Y99.338 E.02416
G1 X40.604 Y98.976 E.02416
G1 X39.939 Y98.585 E.02416
G1 X39.293 Y98.165 E.02417
G1 X38.666 Y97.717 E.02416
G1 X38.06 Y97.242 E.02416
G1 X37.475 Y96.74 E.02416
G1 X36.913 Y96.213 E.02416
G1 X36.375 Y95.661 E.02416
G1 X35.861 Y95.086 E.02416
G1 X35.374 Y94.489 E.02416
G1 X34.913 Y93.871 E.02416
G1 X34.481 Y93.233 E.02416
G1 X34.077 Y92.577 E.02417
G1 X33.683 Y91.866 E.02548
G1 X33.358 Y91.214 E.02284
G1 X33.044 Y90.51 E.02416
G1 X32.762 Y89.793 E.02416
G1 X32.512 Y89.064 E.02416
G1 X32.295 Y88.324 E.02416
G1 X32.11 Y87.576 E.02417
G1 X31.959 Y86.821 E.02416
G1 X31.841 Y86.059 E.02416
G1 X31.757 Y85.293 E.02416
G1 X31.707 Y84.524 E.02416
G1 X31.691 Y83.755 E.02411
G1 X31.709 Y82.997 E.02378
G1 X31.709 Y74.578 E.26397
G1 X32.701 Y74.312 E.03218
G1 X32.179 Y72.364 E.06325
G1 X32.697 Y71.638 E.02796
G1 X33.126 Y71.078 E.02212
G1 X33.693 Y70.39 E.02796
G1 X35.71 Y70.39 E.06325
G1 X35.71 Y68.373 E.06325
G1 X36.399 Y67.806 E.02796
G1 X36.958 Y67.376 E.02212
G1 X37.684 Y66.858 E.02796
G1 X39.632 Y67.38 E.06325
G1 X40.155 Y65.432 E.06325
G1 X40.966 Y65.062 E.02796
G1 X41.618 Y64.792 E.02212
G1 X42.453 Y64.48 E.02796
G1 X44.2 Y65.488 E.06325
G1 X45.209 Y63.741 E.06325
G1 X46.088 Y63.595 E.02796
G1 X46.787 Y63.502 E.02212
G1 X47.675 Y63.417 E.02796
G1 X49.101 Y64.843 E.06325
G1 X50.528 Y63.417 E.06325
G1 X51.415 Y63.502 E.02796
G1 X52.115 Y63.595 E.02212
G1 X52.994 Y63.741 E.02796
G1 X54.003 Y65.488 E.06325
G1 X55.75 Y64.48 E.06325
G1 X56.585 Y64.792 E.02796
G1 X57.237 Y65.062 E.02212
G1 X58.048 Y65.432 E.02796
G1 X58.57 Y67.38 E.06325
G1 X60.519 Y66.858 E.06325
G1 X61.245 Y67.376 E.02796
G1 X61.804 Y67.806 E.02212
G1 X62.492 Y68.373 E.02796
G1 X62.492 Y70.39 E.06325
G1 X64.51 Y70.39 E.06325
G1 X65.077 Y71.078 E.02796
G1 X65.506 Y71.638 E.02212
G1 X66.024 Y72.364 E.02796
G1 X65.502 Y74.312 E.06325
G1 X66.453 Y74.567 E.03088
M204 P1000
G1 X66.871 Y74.757 F9000
G1 E-2.24 F4200
;WIPE_START
G1 F7200
G1 X66.464 Y76.213 E-.912
;WIPE_END
G1 E-.048 F4200
G1 Z.4 F720
G1 X56.317 Y112.604 F9000
G1 Z.2 F720
G1 E3.2 F2400
M204 P800
;TYPE:Perimeter
G1 F1200
G1 X53.734 Y123.212 E.34234
G1 X53.619 Y123.44 E.008
G1 X53.486 Y123.583 E.00611
G1 X53.348 Y123.681 E.00533
G1 X53.192 Y123.748 E.00533
G1 X52.911 Y123.793 E.00891
G1 X45.178 Y123.783 E.24247
G1 X44.953 Y123.731 E.00724
G1 X44.733 Y123.601 E.008
G1 X44.583 Y123.44 E.00689
G1 X44.479 Y123.234 E.00724
G1 X41.885 Y112.604 E.34309
G1 X27.766 Y112.604 E.44272
G1 X27.766 Y83.792 E.90336
G1 X27.782 Y82.954 E.0263
M73 P1 R61
G1 X27.83 Y82.128 E.02594
G1 X27.91 Y81.304 E.02595
G1 X28.022 Y80.484 E.02594
G1 X28.166 Y79.669 E.02594
G1 X28.341 Y78.861 E.02594
G1 X28.547 Y78.059 E.02595
G1 X28.785 Y77.267 E.02595
G1 X29.052 Y76.484 E.02594
G1 X29.351 Y75.712 E.02595
G1 X29.663 Y74.988 E.02472
G1 X30.036 Y74.205 E.02719
G1 X30.421 Y73.473 E.02592
G1 X30.835 Y72.757 E.02594
G1 X31.276 Y72.057 E.02594
G1 X31.744 Y71.374 E.02594
G1 X32.238 Y70.711 E.02594
G1 X32.757 Y70.067 E.02594
G1 X33.301 Y69.443 E.02595
G1 X33.869 Y68.841 E.02594
G1 X34.46 Y68.262 E.02595
G1 X35.073 Y67.706 E.02594
G1 X35.707 Y67.174 E.02594
G1 X36.33 Y66.691 E.02473
G1 X37.034 Y66.186 E.02719
G1 X37.725 Y65.731 E.02592
G1 X38.434 Y65.304 E.02594
G1 X39.158 Y64.904 E.02594
G1 X39.897 Y64.533 E.02594
G1 X40.651 Y64.19 E.02595
G1 X41.417 Y63.877 E.02594
G1 X42.194 Y63.594 E.02594
G1 X42.982 Y63.342 E.02595
G1 X43.779 Y63.12 E.02594
G1 X44.547 Y62.938 E.02472
G1 X45.397 Y62.769 E.02719
G1 X46.214 Y62.642 E.02592
G1 X47.036 Y62.546 E.02595
G1 X47.861 Y62.481 E.02594
G1 X48.682 Y62.45 E.02575
G1 X49.907 Y62.465 E.03843
G1 X51.173 Y62.546 E.03978
G1 X51.989 Y62.642 E.02574
G1 X52.806 Y62.769 E.02594
G1 X53.618 Y62.929 E.02594
G1 X54.423 Y63.12 E.02595
G1 X55.22 Y63.342 E.02594
G1 X56.009 Y63.594 E.02595
G1 X56.786 Y63.877 E.02594
G1 X57.552 Y64.19 E.02594
G1 X58.305 Y64.533 E.02595
