; generated by PrusaSlicer 2.5.0+win64 on 2023-01-13 at 21:10:52 UTC


;
;

;
;
; 

; external perimeters extrusion width = 0.40mm
; perimeters extrusion width = 0.40mm
; infill extrusion width = 0.45mm
; solid infill extrusion width = 0.45mm
; top infill extrusion width = 0.40mm
; first layer extrusion width = 0.42mm

M73 P0 R85
M201 X2500 Y2500 Z400 E5000 ; sets maximum accelerations, mm/sec^2
M203 X180 Y180 Z12 E80 ; sets maximum feedrates, mm / sec
M204 P1250 R1250 T2500 ; sets acceleration (P, T) and retract acceleration (R), mm/sec^2
M205 X8.00 Y8.00 Z2.00 E10.00 ; sets the jerk limits, mm/sec
M205 S0 T0 ; sets the minimum extruding and travel feed rate, mm/sec
M107
;TYPE:Custom
M862.3 P "MINI" ; printer model check
G90 ; use absolute coordinates
M83 ; extruder relative mode
M104 S170 ; set extruder temp for bed leveling
M140 S60 ; set bed temp
M109 R170 ; wait for bed leveling temp
M190 S60 ; wait for bed temp
M204 T1250 ; set travel acceleration
G28 ; home all without mesh bed level
G29 ; mesh bed leveling 
M204 T2500 ; restore travel acceleration
M104 S215 ; set extruder temp
G92 E0
G1 Y-2 X179 F2400
G1 Z3 F720
M109 S215 ; wait for extruder temp

; intro line
M73 P0 R84
G1 X170 F1000
G1 Z0.2 F720
G1 X110 E8 F900
G1 X40 E10 F700
G92 E0

M221 S95 ; set flow
G21 ; set units to millimeters
G90 ; use absolute coordinates
M83 ; use relative distances for extrusion
M900 K0.2 ; Filament gcode LA 1.5
; ; Filament gcode LA 1.0
M107
;LAYER_CHANGE
;Z:0.2
;HEIGHT:0.2
;BEFORE_LAYER_CHANGE
G92 E0.0
;0.2


G1 E-3.2 F4200
G1 Z.2 F720
;AFTER_LAYER_CHANGE
;0.2
G1 Z.4
G1 X65.973 Y72.635 F9000
G1 Z.2 F720
G1 E3.2 F2400
M204 P800
;TYPE:Skirt/Brim
;WIDTH:0.42
G1 F1200
G1 X66.9 Y71.909 E.0369
G1 X67.671 Y71.464 E.02792
G1 X68.49 Y71.114 E.02792
G1 X69.939 Y70.757 E.04679
G1 X70.97 Y70.681 E.03242
G1 X113.113 Y70.686 E1.32138
G1 X114.595 Y70.866 E.0468
G1 X115.718 Y71.216 E.0369
G1 X117.04 Y71.909 E.04679
G1 X117.966 Y72.635 E.0369
G1 X118.956 Y73.752 E.04679
G1 X119.565 Y74.759 E.0369
G1 X120.094 Y76.155 E.04679
G1 X120.306 Y77.312 E.0369
G1 X120.347 Y95.059 E.55642
G1 X120.163 Y96.684 E.05128
G1 X119.914 Y97.539 E.02792
G1 X119.565 Y98.358 E.02792
G1 X119.119 Y99.129 E.02792
G1 X118.393 Y100.055 E.0369
G1 X117.751 Y100.672 E.02792
G1 X117.04 Y101.208 E.02792
G1 X116.269 Y101.653 E.02792
G1 X115.45 Y102.003 E.02792
G1 X114.001 Y102.36 E.04679
G1 X112.97 Y102.436 E.03242
G1 X70.97 Y102.436 E1.31688
G1 X69.345 Y102.251 E.05128
G1 X68.221 Y101.901 E.0369
G1 X67.372 Y101.493 E.02954
G1 X66.188 Y100.672 E.04517
G1 X65.356 Y99.84 E.0369
G1 X58.315 Y89.819 E.384
G1 X57.806 Y88.726 E.0378
G1 X57.602 Y87.566 E.03695
G1 X57.635 Y85.169 E.07514
G1 X57.806 Y84.391 E.02499
G1 X58.315 Y83.298 E.0378
G1 X65.356 Y73.277 E.384
G1 X65.932 Y72.678 E.02604
M204 P1000
; printing object brELECTRICIAN.stl id:0 copy 0
G1 E-2.24 F4200
;WIPE_START
G1 F7200
G1 X66.9 Y71.909 E-.6851
G1 X67.254 Y71.704 E-.2269
;WIPE_END
G1 E-.048 F4200
G1 Z.4 F720
G1 X66.373 Y84.691 F9000
G1 Z.2 F720
G1 E3.2 F2400
M204 P800
;TYPE:Perimeter
;WIDTH:0.419999
G1 F1200
G1 X66.618 Y84.621 E.00798
G1 X66.923 Y84.374 E.0123
G1 X67.06 Y84.145 E.00837
G1 X67.134 Y83.78 E.01169
G1 X67.134 Y78.214 E.17451
G1 X67.164 Y77.596 E.0194
G1 X67.316 Y76.92 E.02174
G1 X67.575 Y76.277 E.02174
G1 X67.957 Y75.699 E.02174
G1 X68.428 Y75.189 E.02174
G1 X68.99 Y74.784 E.02174
G1 X69.61 Y74.474 E.02174
G1 X70.28 Y74.295 E.02174
G1 X71.005 Y74.223 E.02284
G1 X112.815 Y74.223 E1.31092
G1 X113.067 Y74.231 E.00792
G1 X113.66 Y74.295 E.01868
G1 X114.329 Y74.474 E.02174
G1 X114.949 Y74.784 E.02174
G1 X115.512 Y75.189 E.02174
G1 X115.982 Y75.699 E.02174
G1 X116.364 Y76.277 E.02174
G1 X116.623 Y76.92 E.02174
G1 X116.776 Y77.596 E.02174
G1 X116.806 Y78.214 E.0194
G1 X116.806 Y94.903 E.52325
G1 X116.776 Y95.52 E.01938
G1 X116.623 Y96.199 E.02181
G1 X116.364 Y96.84 E.02168
G1 X115.982 Y97.419 E.02174
G1 X115.512 Y97.928 E.02173
G1 X114.949 Y98.333 E.02174
G1 X114.329 Y98.643 E.02174
G1 X113.66 Y98.823 E.02174
G1 X112.935 Y98.894 E.02284
G1 X71.126 Y98.894 E1.31089
G1 X70.508 Y98.864 E.0194
G1 X69.831 Y98.712 E.02174
G1 X69.188 Y98.453 E.02174
G1 X68.61 Y98.071 E.02174
G1 X68.1 Y97.601 E.02174
G1 X67.695 Y97.038 E.02174
G1 X67.385 Y96.418 E.02174
G1 X67.206 Y95.748 E.02174
G1 X67.134 Y95.023 E.02284
G1 X67.134 Y89.337 E.17829
G1 X67.113 Y89.14 E.00622
G1 X66.978 Y88.818 E.01092
G1 X66.709 Y88.549 E.01194
G1 X66.483 Y88.441 E.00787
G1 X66.191 Y88.394 E.00926
G1 X64.888 Y88.394 E.04085
G1 X65.115 Y88.134 E.01082
G1 X65.376 Y87.684 E.01634
G1 X65.586 Y87.048 E.02099
G1 X65.634 Y86.511 E.01691
G1 X65.571 Y85.977 E.01685
G1 X65.412 Y85.5 E.01577
G1 X65.115 Y84.983 E.01869
G1 X64.888 Y84.723 E.01082
G1 X66.315 Y84.708 E.04474
M204 P1000
G1 X66.294 Y84.325 F9000
M204 P800
G1 F1200
G1 X66.502 Y84.253 E.00689
G1 X66.686 Y84.054 E.00849
G1 X66.757 Y83.78 E.00888
G1 X66.757 Y78.082 E.17865
G1 X66.789 Y77.551 E.01669
G1 X66.881 Y77.051 E.01595
G1 X67.032 Y76.565 E.01595
G1 X67.241 Y76.101 E.01595
G1 X67.504 Y75.666 E.01595
G1 X67.817 Y75.266 E.01595
G1 X68.177 Y74.906 E.01595
G1 X68.577 Y74.593 E.01595
G1 X69.013 Y74.329 E.01595
G1 X69.476 Y74.121 E.01595
G1 X69.962 Y73.969 E.01595
G1 X70.462 Y73.878 E.01595
G1 X70.994 Y73.846 E.01669
G1 X112.959 Y73.846 E1.31579
G1 X113.477 Y73.878 E.01629
G1 X113.978 Y73.969 E.01595
G1 X114.463 Y74.121 E.01595
G1 X114.927 Y74.329 E.01595
G1 X115.362 Y74.593 E.01595
G1 X115.763 Y74.906 E.01595
G1 X116.122 Y75.266 E.01595
G1 X116.436 Y75.666 E.01595
G1 X116.699 Y76.101 E.01595
G1 X116.908 Y76.565 E.01595
G1 X117.059 Y77.051 E.01595
G1 X117.151 Y77.551 E.01595
G1 X117.183 Y78.214 E.02083
G1 X117.183 Y95.035 E.52739
G1 X117.151 Y95.566 E.01668
G1 X117.057 Y96.073 E.01616
G1 X116.908 Y96.552 E.01575
G1 X116.699 Y97.016 E.01595
G1 X116.436 Y97.451 E.01595
G1 X116.122 Y97.851 E.01595
G1 X115.763 Y98.211 E.01595
G1 X115.362 Y98.525 E.01595
G1 X114.927 Y98.788 E.01595
G1 X114.463 Y98.996 E.01595
G1 X113.978 Y99.148 E.01595
G1 X113.477 Y99.239 E.01595
G1 X112.946 Y99.271 E.01669
G1 X70.994 Y99.271 E1.31539
G1 X70.462 Y99.239 E.01669
G1 X69.962 Y99.148 E.01595
G1 X69.476 Y98.996 E.01595
G1 X69.013 Y98.788 E.01595
G1 X68.577 Y98.525 E.01595
G1 X68.177 Y98.211 E.01595
G1 X67.817 Y97.851 E.01595
G1 X67.504 Y97.451 E.01595
G1 X67.241 Y97.016 E.01595
G1 X67.032 Y96.552 E.01595
G1 X66.881 Y96.066 E.01595
G1 X66.789 Y95.566 E.01595
G1 X66.757 Y95.035 E.01669
G1 X66.757 Y89.337 E.17865
G1 X66.664 Y89.026 E.01019
G1 X66.477 Y88.849 E.00805
G1 X66.191 Y88.771 E.0093
G1 X63.54 Y88.781 E.08314
G1 X63.904 Y88.645 E.0122
G1 X64.345 Y88.384 E.01605
G1 X64.717 Y88.033 E.01605
G1 X65.024 Y87.55 E.01794
G1 X65.211 Y87.006 E.01805
G1 X65.255 Y86.495 E.01606
G1 X65.183 Y85.988 E.01605
G1 X65.001 Y85.51 E.01605
G1 X64.717 Y85.084 E.01605
G1 X64.345 Y84.733 E.01605
G1 X63.904 Y84.472 E.01605
G1 X63.415 Y84.331 E.01597
G1 X66.238 Y84.343 E.0885
M204 P1000
G1 X66.191 Y83.969 F9000
M204 P800
;TYPE:External perimeter
G1 F1200
G1 X66.321 Y83.917 E.00437
G1 X66.38 Y83.78 E.00468
G1 X66.38 Y78.071 E.179
G1 X66.414 Y77.505 E.01777
G1 X66.514 Y76.96 E.01738
G1 X66.679 Y76.431 E.01738
G1 X66.906 Y75.926 E.01738
G1 X67.193 Y75.452 E.01738
G1 X67.535 Y75.015 E.01738
G1 X67.927 Y74.623 E.01738
G1 X68.363 Y74.282 E.01738
G1 X68.837 Y73.995 E.01738
G1 X69.342 Y73.768 E.01738
G1 X69.871 Y73.603 E.01738
G1 X70.417 Y73.503 E.01738
G1 X70.982 Y73.469 E.01777
G1 X112.97 Y73.469 E1.3165
G1 X113.523 Y73.503 E.01736
G1 X114.068 Y73.603 E.01738
G1 X114.597 Y73.768 E.01738
G1 X115.103 Y73.995 E.01738
G1 X115.577 Y74.282 E.01738
G1 X116.013 Y74.623 E.01738
G1 X116.405 Y75.015 E.01738
G1 X116.747 Y75.452 E.01738
G1 X117.033 Y75.926 E.01738
G1 X117.261 Y76.431 E.01738
G1 X117.426 Y76.96 E.01738
G1 X117.526 Y77.505 E.01738
G1 X117.56 Y78.214 E.02225
G1 X117.56 Y95.046 E.52775
G1 X117.526 Y95.612 E.01776
G1 X117.424 Y96.163 E.01759
G1 X117.261 Y96.686 E.01717
G1 X117.033 Y97.191 E.01738
G1 X116.747 Y97.666 E.01738
G1 X116.405 Y98.102 E.01738
G1 X116.013 Y98.494 E.01738
G1 X115.577 Y98.835 E.01738
G1 X115.103 Y99.122 E.01738
G1 X114.597 Y99.35 E.01738
G1 X114.068 Y99.514 E.01738
G1 X113.523 Y99.614 E.01738
G1 X112.957 Y99.649 E.01777
G1 X70.982 Y99.649 E1.3161
G1 X70.417 Y99.614 E.01777
G1 X69.872 Y99.514 E.01738
G1 X69.342 Y99.35 E.01738
G1 X68.837 Y99.122 E.01738
G1 X68.363 Y98.835 E.01738
G1 X67.927 Y98.494 E.01738
G1 X67.535 Y98.102 E.01738
G1 X67.193 Y97.666 E.01738
G1 X66.906 Y97.191 E.01738
G1 X66.679 Y96.686 E.01738
G1 X66.514 Y96.157 E.01738
G1 X66.414 Y95.612 E.01738
G1 X66.38 Y95.046 E.01777
G1 X66.38 Y89.337 E.179
G1 X66.338 Y89.218 E.00396
G1 X66.191 Y89.149 E.00508
G1 X62.525 Y89.149 E.11496
G1 X61.979 Y89.13 E.01712
G1 X61.599 Y89.05 E.01219
G1 X61.221 Y88.869 E.01313
G1 X60.831 Y88.539 E.01601
G1 X60.621 Y88.253 E.01115
G1 X60.434 Y87.766 E.01635
G1 X60.38 Y87.341 E.01344
G1 X60.38 Y86.113 E.03848
G1 X60.398 Y85.568 E.01712
G1 X60.478 Y85.187 E.01219
G1 X60.659 Y84.81 E.01313
G1 X60.989 Y84.42 E.01601
G1 X61.276 Y84.21 E.01115
G1 X61.763 Y84.023 E.01636
G1 X62.188 Y83.969 E.01343
G1 X66.131 Y83.969 E.12365
M204 P1000
G1 X66.289 Y84.068 F9000
G1 E-2.24 F4200
;WIPE_START
G1 F7200
G1 X66.321 Y83.917 E-.10878
G1 X66.38 Y83.78 E-.08273
G1 X66.38 Y82.48 E-.72049
;WIPE_END
G1 E-.048 F4200
G1 Z.4 F720
G1 X64.839 Y86.176 F9000
G1 Z.2 F720
G1 E3.2 F2400
M204 P800
G1 F1200
G1 X64.88 Y86.58 E.01272
G1 X64.826 Y87.009 E.01357
G1 X64.655 Y87.449 E.01481
G1 X64.45 Y87.766 E.01182
G1 X64.144 Y88.065 E.01341
G1 X63.78 Y88.289 E.01341
G1 X63.369 Y88.426 E.01357
G1 X62.898 Y88.463 E.01481
G1 X62.524 Y88.416 E.01182
G1 X62.122 Y88.27 E.01341
G1 X61.705 Y87.981 E.01591
G1 X61.463 Y87.733 E.01086
G1 X61.24 Y87.368 E.01341
G1 X61.103 Y86.963 E.01341
G1 X61.06 Y86.537 E.01341
G1 X61.112 Y86.113 E.01341
G1 X61.258 Y85.711 E.01341
G1 X61.489 Y85.351 E.01341
G1 X61.795 Y85.052 E.01341
G1 X62.165 Y84.827 E.01357
G1 X62.616 Y84.686 E.01481
G1 X62.991 Y84.648 E.01182
G1 X63.415 Y84.701 E.01341
G1 X63.818 Y84.847 E.01341
G1 X64.177 Y85.078 E.01341
G1 X64.476 Y85.384 E.01341
G1 X64.7 Y85.749 E.01341
G1 X64.825 Y86.118 E.01223
M204 P1000
G1 X65.22 Y86.299 F9000
G1 E-2.24 F4200
;WIPE_START
G1 F7200
G1 X64.88 Y86.58 E-.25753
G1 X64.826 Y87.009 E-.23988
G1 X64.655 Y87.449 E-.26177
G1 X64.505 Y87.681 E-.15282
;WIPE_END
G1 E-.048 F4200
G1 Z.4 F720
G1 X63.449 Y88.784 F9000
G1 Z.2 F720
G1 E3.2 F2400
M204 P800
;TYPE:Perimeter
;WIDTH:0.39587
G1 F1200
G1 X62.919 Y88.806 E.01555
;WIDTH:0.384745
G1 X62.659 Y88.789 E.0074
;WIDTH:0.41936
G1 X62.4 Y88.772 E.00815
;WIDTH:0.458136
G1 X62.27 Y88.743 E.0046
;WIDTH:0.496911
G1 X62.14 Y88.713 E.00502
;WIDTH:0.535687
G1 X62.01 Y88.684 E.00545
;WIDTH:0.574462
G1 X61.88 Y88.655 E.00588
;WIDTH:0.61403
G1 X61.692 Y88.56 E.01001
;WIDTH:0.653598
G1 X61.504 Y88.465 E.0107
;WIDTH:0.664046
G1 X61.137 Y88.119 E.02606
G1 X60.942 Y87.805 E.01906
;WIDTH:0.625648
G1 X60.891 Y87.645 E.00818
;WIDTH:0.578876
G1 X60.84 Y87.484 E.00752
;WIDTH:0.532104
G1 X60.79 Y87.323 E.00686
;WIDTH:0.485332
G1 X60.767 Y87.088 E.00869
;WIDTH:0.439478
G1 X60.744 Y86.853 E.00778
;WIDTH:0.393624
G1 X60.721 Y86.618 E.00688
;WIDTH:0.391104
G1 X60.742 Y86.113 E.01462
;WIDTH:0.438525
G1 X60.772 Y85.944 E.00565
;WIDTH:0.485946
G1 X60.801 Y85.775 E.00633
;WIDTH:0.533366
G1 X60.83 Y85.606 E.00701
;WIDTH:0.573114
G1 X60.902 Y85.444 E.00778
;WIDTH:0.612862
G1 X60.974 Y85.283 E.00837
;WIDTH:0.65261
G1 X61.045 Y85.122 E.00895
;WIDTH:0.678274
G1 X61.347 Y84.778 E.02415
G1 X61.535 Y84.654 E.01189
;WIDTH:0.651959
G1 X61.723 Y84.531 E.01139
;WIDTH:0.625644
G1 X61.878 Y84.473 E.00801
;WIDTH:0.577513
G1 X62.033 Y84.416 E.00735
;WIDTH:0.529382
G1 X62.203 Y84.387 E.00695
;WIDTH:0.482999
G1 X62.372 Y84.359 E.00629
;WIDTH:0.436616
G1 X62.542 Y84.331 E.00563
;WIDTH:0.391102
G1 X63.415 Y84.331 E.02528
M204 P1000
G1 E-2.24 F4200
;WIPE_START
G1 F7200
G1 X62.542 Y84.331 E-.48386
G1 X62.372 Y84.359 E-.09527
G1 X62.203 Y84.387 E-.09527
G1 X62.033 Y84.416 E-.09527
G1 X61.878 Y84.473 E-.09166
G1 X61.792 Y84.505 E-.05066
;WIPE_END
G1 E-.048 F4200
G1 Z.4 F720
G1 X114.676 Y74.754 F9000
G1 Z.2 F720
G1 E3.2 F2400
M204 P800
;TYPE:Solid infill
;WIDTH:0.42126
G1 F1200
G1 X115.631 Y75.709 E.04246
G1 X115.892 Y76.042 E.01331
G1 X116.114 Y76.409 E.01349
G1 X116.289 Y76.8 E.01349
G1 X116.336 Y76.949 E.00492
G1 X114.079 Y74.692 E.1004
G1 X113.819 Y74.611 E.00857
G1 X113.385 Y74.533 E.01388
G1 X116.495 Y77.643 E.13835
G1 X116.523 Y78.206 E.01773
M73 P1 R84
G1 X112.823 Y74.506 E.16459
G1 X112.288 Y74.506 E.01683
G1 X116.523 Y78.741 E.1884
G1 X116.523 Y79.276 E.01683
G1 X111.753 Y74.506 E.2122
G1 X111.218 Y74.506 E.01683
G1 X116.523 Y79.811 E.23601
G1 X116.523 Y80.346 E.01683
G1 X110.683 Y74.506 E.25981
G1 X110.148 Y74.506 E.01683
G1 X116.523 Y80.881 E.28362
G1 X116.523 Y81.416 E.01683
G1 X109.613 Y74.506 E.30742
G1 X109.078 Y74.506 E.01683
G1 X116.523 Y81.951 E.33123
G1 X116.523 Y82.486 E.01683
G1 X108.543 Y74.506 E.35503
G1 X108.008 Y74.506 E.01683
G1 X116.523 Y83.021 E.37884
G1 X116.523 Y83.556 E.01683
G1 X107.473 Y74.506 E.40264
G1 X106.938 Y74.506 E.01683
G1 X116.523 Y84.091 E.42645
G1 X116.523 Y84.627 E.01683
G1 X106.402 Y74.506 E.45025
G1 X105.867 Y74.506 E.01683
G1 X116.523 Y85.162 E.47406
G1 X116.523 Y85.697 E.01683
G1 X105.332 Y74.506 E.49786
G1 X104.797 Y74.506 E.01683
G1 X116.523 Y86.232 E.52167
G1 X116.523 Y86.767 E.01683
G1 X104.262 Y74.506 E.54547
G1 X103.727 Y74.506 E.01683
M73 P1 R83
G1 X116.523 Y87.302 E.56928
G1 X116.523 Y87.837 E.01683
G1 X103.192 Y74.506 E.59308
G1 X102.657 Y74.506 E.01683
G1 X116.523 Y88.372 E.61689
G1 X116.523 Y88.907 E.01683
G1 X102.122 Y74.506 E.64069
G1 X101.587 Y74.506 E.01683
G1 X116.523 Y89.442 E.6645
G1 X116.523 Y89.977 E.01683
G1 X101.052 Y74.506 E.6883
G1 X100.517 Y74.506 E.01683
G1 X116.523 Y90.512 E.71211
G1 X116.523 Y91.047 E.01683
G1 X99.982 Y74.506 E.73591
G1 X99.447 Y74.506 E.01683
G1 X116.523 Y91.582 E.75972
G1 X116.523 Y92.117 E.01683
G1 X98.912 Y74.506 E.78352
G1 X98.377 Y74.506 E.01683
G1 X116.523 Y92.652 E.80733
G1 X116.523 Y93.187 E.01683
G1 X97.841 Y74.506 E.83113
G1 X97.306 Y74.506 E.01683
G1 X116.523 Y93.722 E.85494
G1 X116.523 Y94.257 E.01683
G1 X96.771 Y74.506 E.87874
G1 X96.236 Y74.506 E.01683
G1 X116.523 Y94.793 E.90255
G1 X116.505 Y95.31 E.01628
G1 X95.701 Y74.506 E.92556
G1 X95.166 Y74.506 E.01683
G1 X116.44 Y95.78 E.94647
G1 X116.326 Y96.201 E.01372
G1 X94.631 Y74.506 E.9652
G1 X94.096 Y74.506 E.01683
G1 X116.171 Y96.581 E.98211
G1 X115.982 Y96.927 E.0124
G1 X93.561 Y74.506 E.99749
G1 X93.026 Y74.506 E.01683
G1 X115.762 Y97.242 E1.01151
G1 X115.513 Y97.528 E.01193
G1 X92.491 Y74.506 E1.02423
G1 X91.956 Y74.506 E.01683
G1 X115.235 Y97.786 E1.03571
G1 X114.93 Y98.015 E.01202
G1 X91.421 Y74.506 E1.04591
G1 X90.886 Y74.506 E.01683
G1 X114.594 Y98.214 E1.05477
G1 X114.224 Y98.38 E.01274
G1 X90.351 Y74.506 E1.06214
G1 X89.816 Y74.506 E.01683
G1 X113.816 Y98.506 E1.06778
G1 X113.36 Y98.585 E.01456
G1 X89.28 Y74.506 E1.07129
G1 X88.745 Y74.506 E.01683
G1 X112.851 Y98.612 E1.07246
G1 X112.316 Y98.612 E.01683
M73 P2 R83
G1 X88.21 Y74.506 E1.07246
G1 X87.675 Y74.506 E.01683
G1 X111.781 Y98.612 E1.07246
G1 X111.246 Y98.612 E.01683
G1 X87.14 Y74.506 E1.07246
G1 X86.605 Y74.506 E.01683
G1 X110.711 Y98.612 E1.07246
G1 X110.176 Y98.612 E.01683
G1 X86.07 Y74.506 E1.07246
G1 X85.535 Y74.506 E.01683
G1 X109.641 Y98.612 E1.07247
G1 X109.106 Y98.612 E.01683
G1 X85 Y74.506 E1.07247
G1 X84.465 Y74.506 E.01683
G1 X108.571 Y98.612 E1.07247
G1 X108.036 Y98.612 E.01683
G1 X83.93 Y74.506 E1.07247
G1 X83.395 Y74.506 E.01683
G1 X107.501 Y98.612 E1.07247
G1 X106.966 Y98.612 E.01683
G1 X82.86 Y74.506 E1.07247
G1 X82.325 Y74.506 E.01683
M73 P2 R82
G1 X106.431 Y98.612 E1.07247
G1 X105.895 Y98.612 E.01683
G1 X81.79 Y74.506 E1.07247
G1 X81.255 Y74.506 E.01683
G1 X105.36 Y98.612 E1.07247
G1 X104.825 Y98.612 E.01683
G1 X80.719 Y74.506 E1.07247
G1 X80.184 Y74.506 E.01683
G1 X104.29 Y98.612 E1.07247
G1 X103.755 Y98.612 E.01683
G1 X79.649 Y74.506 E1.07247
G1 X79.114 Y74.506 E.01683
G1 X103.22 Y98.612 E1.07247
G1 X102.685 Y98.612 E.01683
G1 X78.579 Y74.506 E1.07247
