; generated by PrusaSlicer 2.5.0+win64 on 2023-01-26 at 17:59:12 UTC


;
;

;
;
; 

; external perimeters extrusion width = 0.45mm
; perimeters extrusion width = 0.45mm
; infill extrusion width = 0.45mm
; solid infill extrusion width = 0.45mm
; top infill extrusion width = 0.40mm
; first layer extrusion width = 0.42mm

; external perimeters extrusion width = 0.45mm
; perimeters extrusion width = 0.45mm
; infill extrusion width = 0.45mm
; solid infill extrusion width = 0.45mm
; top infill extrusion width = 0.40mm
; first layer extrusion width = 0.42mm

M73 P0 R44
M201 X2500 Y2500 Z400 E5000 ; sets maximum accelerations, mm/sec^2
M203 X180 Y180 Z12 E80 ; sets maximum feedrates, mm / sec
M204 P1250 R1250 T2500 ; sets acceleration (P, T) and retract acceleration (R), mm/sec^2
M205 X8.00 Y8.00 Z2.00 E10.00 ; sets the jerk limits, mm/sec
M205 S0 T0 ; sets the minimum extruding and travel feed rate, mm/sec
M107
;TYPE:Custom
M862.3 P "MINI" ; printer model check
G90 ; use absolute coordinates
M83 ; extruder relative mode
M104 S170 ; set extruder temp for bed leveling
M140 S60 ; set bed temp
M109 R170 ; wait for bed leveling temp
M190 S60 ; wait for bed temp
M204 T1250 ; set travel acceleration
G28 ; home all without mesh bed level
G29 ; mesh bed leveling 
M204 T2500 ; restore travel acceleration
M104 S215 ; set extruder temp
G92 E0
G1 Y-2 X179 F2400
G1 Z3 F720
M109 S215 ; wait for extruder temp

; intro line
G1 X170 F1000
G1 Z0.2 F720
G1 X110 E8 F900
G1 X40 E10 F700
G92 E0

M221 S95 ; set flow
G21 ; set units to millimeters
G90 ; use absolute coordinates
M83 ; use relative distances for extrusion
M900 K0.2 ; Filament gcode LA 1.5
; ; Filament gcode LA 1.0
M107
;LAYER_CHANGE
;Z:0.2
;HEIGHT:0.2
;BEFORE_LAYER_CHANGE
G92 E0.0
;0.2


G1 E-3.2 F4200
G1 Z.2 F720
;AFTER_LAYER_CHANGE
;0.2
G1 Z.4
G1 X91.601 Y66.81 F9000
G1 Z.2 F720
G1 E3.2 F2400
M204 P800
;TYPE:Skirt/Brim
;WIDTH:0.42
G1 F1200
G1 X95.325 Y62.7 E.17389
G1 X96.022 Y62.174 E.02739
G1 X100.735 Y59.827 E.16507
G1 X101.575 Y59.588 E.02739
G1 X106.817 Y59.102 E.16507
G1 X107.687 Y59.183 E.02739
G1 X112.751 Y60.624 E.16507
G1 X113.533 Y61.013 E.02739
G1 X117.734 Y64.186 E.16507
G1 X118.323 Y64.831 E.02739
G1 X121.094 Y69.307 E.16507
G1 X121.41 Y70.122 E.02739
G1 X122.377 Y75.297 E.16507
G1 X122.377 Y76.17 E.02739
G1 X121.41 Y81.345 E.16507
G1 X121.094 Y82.16 E.02739
G1 X118.323 Y86.636 E.16507
G1 X117.734 Y87.282 E.02739
G1 X113.36 Y90.574 E.17166
G1 X90.899 Y104.602 E.8303
G1 X89.161 Y105.542 E.06195
G1 X88.136 Y105.925 E.03432
G1 X86.87 Y106.247 E.04097
G1 X85.784 Y106.4 E.03436
G1 X83.77 Y106.4 E.06317
G1 X82.695 Y106.248 E.03402
G1 X81.499 Y105.945 E.03868
G1 X79.719 Y105.217 E.06032
G1 X78.765 Y104.666 E.03453
G1 X77.881 Y104.029 E.03416
G1 X77.066 Y103.312 E.03404
G1 X76.328 Y102.52 E.03395
G1 X75.666 Y101.654 E.03417
G1 X75.096 Y100.733 E.03397
G1 X74.618 Y99.758 E.03404
G1 X74.236 Y98.739 E.03412
G1 X73.958 Y97.691 E.03399
G1 X73.783 Y96.62 E.03404
G1 X73.714 Y95.534 E.03412
G1 X73.752 Y94.449 E.03403
G1 X73.896 Y93.374 E.03403
G1 X74.145 Y92.314 E.03412
G1 X74.496 Y91.288 E.034
G1 X74.948 Y90.297 E.03415
G1 X75.492 Y89.36 E.03398
G1 X91.566 Y66.859 E.86704
M204 P1000
; printing object union_2.stl id:0 copy 0
G1 E-2.24 F4200
;WIPE_START
G1 F7200
G1 X92.67 Y65.638 E-.912
;WIPE_END
G1 E-.048 F4200
G1 Z.4 F720
G1 X92.663 Y95.349 F9000
G1 Z.2 F720
G1 E3.2 F2400
M204 P800
;TYPE:Perimeter
;WIDTH:0.419999
G1 F1200
G1 X92.665 Y95.732 E.01202
G1 X92.592 Y96.503 E.02427
G1 X92.444 Y97.263 E.02427
G1 X92.223 Y98.004 E.02427
G1 X91.929 Y98.723 E.02434
G1 X91.567 Y99.406 E.02424
G1 X91.139 Y100.052 E.02431
G1 X90.649 Y100.654 E.02432
G1 X90.104 Y101.203 E.02427
G1 X89.508 Y101.697 E.02425
G1 X88.864 Y102.131 E.02437
G1 X88.183 Y102.498 E.02425
G1 X87.467 Y102.799 E.02436
G1 X86.72 Y103.028 E.02448
G1 X85.979 Y103.179 E.02371
G1 X85.139 Y103.26 E.02648
G1 X84.35 Y103.259 E.02475
G1 X83.57 Y103.177 E.02456
G1 X82.846 Y103.03 E.02317
G1 X82.152 Y102.817 E.02277
G1 X81.435 Y102.523 E.02429
G1 X80.751 Y102.161 E.02427
G1 X80.105 Y101.734 E.02428
G1 X79.505 Y101.245 E.02429
G1 X78.955 Y100.7 E.02426
G1 X78.462 Y100.103 E.02427
G1 X78.028 Y99.461 E.02429
G1 X77.661 Y98.78 E.02427
G1 X77.361 Y98.066 E.02427
G1 X77.133 Y97.326 E.02429
G1 X76.979 Y96.567 E.02427
G1 X76.9 Y95.797 E.02427
G1 X76.897 Y95.022 E.02429
G1 X76.97 Y94.251 E.02428
G1 X77.118 Y93.491 E.02428
G1 X77.339 Y92.75 E.02427
G1 X77.633 Y92.033 E.02429
G1 X77.995 Y91.349 E.02426
G1 X78.422 Y90.703 E.02428
G1 X78.911 Y90.102 E.02429
G1 X79.456 Y89.553 E.02426
G1 X80.052 Y89.059 E.02427
G1 X80.695 Y88.626 E.02429
G1 X81.376 Y88.258 E.02427
G1 X82.09 Y87.959 E.02427
G1 X82.83 Y87.731 E.02429
G1 X83.609 Y87.574 E.02493
G1 X84.354 Y87.496 E.02346
G1 X85.142 Y87.491 E.02471
G1 X85.908 Y87.564 E.02414
G1 X86.667 Y87.712 E.02423
G1 X87.408 Y87.933 E.02425
G1 X88.126 Y88.227 E.02433
G1 X88.809 Y88.589 E.02422
G1 X89.455 Y89.017 E.0243
G1 X90.057 Y89.506 E.02432
G1 X90.606 Y90.051 E.02426
G1 X91.099 Y90.647 E.02425
G1 X91.533 Y91.291 E.02435
G1 X91.9 Y91.971 E.02423
G1 X92.2 Y92.686 E.02431
G1 X92.428 Y93.427 E.0243
G1 X92.582 Y94.185 E.02426
G1 X92.662 Y94.956 E.02429
G1 X92.663 Y95.289 E.01044
M204 P1000
G1 X93.04 Y95.347 F9000
M204 P800
;TYPE:External perimeter
G1 F1200
G1 X93.041 Y95.749 E.0126
G1 X92.965 Y96.557 E.02543
G1 X92.81 Y97.353 E.02543
M73 P1 R44
G1 X92.578 Y98.13 E.02543
G1 X92.27 Y98.882 E.0255
G1 X91.891 Y99.598 E.02539
G1 X91.443 Y100.276 E.02547
G1 X90.93 Y100.906 E.02548
G1 X90.359 Y101.482 E.02543
G1 X89.734 Y101.999 E.02541
G1 X89.059 Y102.454 E.02553
G1 X88.346 Y102.839 E.02541
G1 X87.595 Y103.153 E.02552
G1 X86.813 Y103.393 E.02564
G1 X86.036 Y103.551 E.02487
G1 X85.157 Y103.637 E.02769
G1 X84.329 Y103.635 E.02596
G1 X83.513 Y103.55 E.02573
G1 X82.753 Y103.395 E.02433
G1 X82.027 Y103.172 E.02382
G1 X81.275 Y102.865 E.02546
G1 X80.559 Y102.485 E.02543
G1 X79.882 Y102.037 E.02544
G1 X79.252 Y101.525 E.02545
G1 X78.677 Y100.954 E.02542
G1 X78.16 Y100.329 E.02543
G1 X77.706 Y99.656 E.02545
G1 X77.32 Y98.942 E.02543
G1 X77.007 Y98.194 E.02543
G1 X76.768 Y97.419 E.02545
G1 X76.607 Y96.624 E.02543
G1 X76.524 Y95.817 E.02543
G1 X76.52 Y95.005 E.02545
G1 X76.596 Y94.198 E.02544
G1 X76.751 Y93.401 E.02544
G1 X76.984 Y92.624 E.02543
G1 X77.291 Y91.873 E.02545
G1 X77.67 Y91.156 E.02543
G1 X78.118 Y90.479 E.02544
G1 X78.631 Y89.85 E.02545
G1 X79.202 Y89.274 E.02542
G1 X79.826 Y88.757 E.02543
G1 X80.5 Y88.303 E.02545
G1 X81.213 Y87.918 E.02543
G1 X81.961 Y87.604 E.02543
G1 X82.737 Y87.366 E.02545
G1 X83.553 Y87.201 E.02609
G1 X84.332 Y87.12 E.02457
G1 X85.159 Y87.114 E.02592
G1 X85.962 Y87.191 E.0253
G1 X86.757 Y87.346 E.02538
G1 X87.533 Y87.578 E.02541
G1 X88.286 Y87.886 E.02549
G1 X89.001 Y88.265 E.02538
G1 X89.678 Y88.713 E.02547
G1 X90.309 Y89.226 E.02548
G1 X90.884 Y89.797 E.02542
G1 X91.401 Y90.421 E.02541
G1 X91.856 Y91.096 E.02552
G1 X92.241 Y91.808 E.02539
G1 X92.555 Y92.558 E.02547
G1 X92.794 Y93.334 E.02546
G1 X92.955 Y94.128 E.02542
G1 X93.038 Y94.936 E.02545
G1 X93.04 Y95.287 E.01102
M204 P1000
G1 X92.699 Y95.556 F9000
G1 E-2.24 F4200
;WIPE_START
G1 F7200
G1 X93.041 Y95.749 E-.25595
G1 X92.965 Y96.557 E-.44945
G1 X92.894 Y96.923 E-.2066
;WIPE_END
G1 E-.048 F4200
G1 Z.4 F720
G1 X91.299 Y91.123 F9000
G1 Z.2 F720
G1 E3.2 F2400
M204 P800
;TYPE:Solid infill
;WIDTH:0.423747
G1 F1200
G1 X90.121 Y89.944 E.05278
G1 X89.589 Y89.466 E.02266
G1 X88.986 Y89.023 E.02369
G1 X88.223 Y88.585 E.02785
G1 X91.567 Y91.929 E.14975
G1 X91.807 Y92.431 E.01761
G1 X91.964 Y92.865 E.01463
G1 X87.291 Y88.192 E.20926
G1 X86.96 Y88.075 E.01111
G1 X86.53 Y87.97 E.01403
G1 X92.187 Y93.627 E.25334
G1 X92.246 Y93.858 E.00758
G1 X92.312 Y94.29 E.01383
G1 X85.866 Y87.844 E.28869
G1 X85.494 Y87.79 E.0119
G1 X85.263 Y87.78 E.00731
G1 X92.375 Y94.891 E.31848
G1 X92.394 Y95.449 E.01768
G1 X84.704 Y87.759 E.34438
G1 X84.195 Y87.789 E.01615
G1 X92.371 Y95.965 E.36615
G1 X92.314 Y96.447 E.01536
G1 X83.712 Y87.844 E.38525
G1 X83.246 Y87.917 E.01493
G1 X92.24 Y96.91 E.40276
G1 X92.133 Y97.343 E.0141
G1 X82.817 Y88.026 E.41722
G1 X82.399 Y88.147 E.01376
G1 X92.01 Y97.758 E.43037
G1 X91.869 Y98.156 E.01337
G1 X82.004 Y88.291 E.44178
G1 X81.627 Y88.452 E.013
G1 X91.706 Y98.531 E.45138
G1 X91.534 Y98.898 E.01283
G1 X81.262 Y88.626 E.46001
G1 X80.919 Y88.821 E.01251
G1 X91.337 Y99.239 E.46656
G1 X91.136 Y99.577 E.01245
G1 X80.583 Y89.024 E.4726
G1 X80.27 Y89.249 E.01222
G1 X90.909 Y99.888 E.47643
G1 X90.68 Y100.197 E.01219
M73 P1 R43
G1 X79.962 Y89.48 E.47996
G1 X79.677 Y89.734 E.01208
G1 X90.425 Y100.481 E.4813
G1 X90.168 Y100.763 E.01207
G1 X79.396 Y89.991 E.48239
G1 X79.138 Y90.272 E.01207
G1 X89.886 Y101.02 E.48131
G1 X89.602 Y101.274 E.01208
G1 X78.884 Y90.556 E.47998
G1 X78.654 Y90.865 E.01219
G1 X89.294 Y101.504 E.47646
G1 X89.039 Y101.694 E.01005
G1 X88.981 Y101.73 E.00218
G1 X78.426 Y91.176 E.47266
G1 X78.226 Y91.513 E.01244
G1 X88.645 Y101.933 E.46661
G1 X88.302 Y102.128 E.01251
G1 X78.028 Y91.855 E.46008
G1 X77.856 Y92.222 E.01283
G1 X87.938 Y102.303 E.45146
G1 X87.56 Y102.464 E.01299
G1 X77.693 Y92.597 E.44188
G1 X77.552 Y92.995 E.01337
G1 X87.165 Y102.607 E.43047
G1 X86.748 Y102.729 E.01375
G1 X77.429 Y93.41 E.41734
G1 X77.322 Y93.842 E.01409
G1 X86.319 Y102.838 E.40289
G1 X85.854 Y102.912 E.01492
G1 X77.248 Y94.305 E.3854
G1 X77.191 Y94.787 E.01536
G1 X85.369 Y102.966 E.36626
G1 X84.856 Y102.991 E.01628
G1 X77.167 Y95.302 E.34431
G1 X77.187 Y95.86 E.01768
G1 X84.299 Y102.973 E.31851
G1 X84 Y102.957 E.00948
G1 X83.698 Y102.911 E.00966
M73 P2 R43
G1 X77.249 Y96.461 E.28881
G1 X77.315 Y96.894 E.01385
G1 X77.374 Y97.125 E.00755
G1 X83.036 Y102.786 E.25353
G1 X82.603 Y102.676 E.01413
G1 X82.268 Y102.558 E.01125
G1 X77.597 Y97.887 E.20918
G1 X77.755 Y98.321 E.01463
G1 X77.994 Y98.822 E.0176
G1 X81.337 Y102.165 E.14969
G1 X80.574 Y101.727 E.02784
G1 X79.972 Y101.284 E.02369
G1 X79.438 Y100.805 E.02271
G1 X78.262 Y99.628 E.05269
M204 P1000
; stop printing object union_2.stl id:0 copy 0
; printing object nut_1.stl id:1 copy 0
G1 E-2.24 F4200
;WIPE_START
G1 F7200
G1 X79.426 Y100.792 E-.912
;WIPE_END
G1 E-.048 F4200
G1 Z.4 F720
G1 X102.013 Y62.725 F9000
G1 Z.2 F720
G1 E3.2 F2400
M204 P800
;TYPE:Perimeter
;WIDTH:0.419999
G1 F1200
G1 X106.984 Y62.273 E.15651
G1 X111.743 Y63.627 E.15514
G1 X115.71 Y66.622 E.15584
G1 X118.326 Y70.848 E.15584
G1 X119.24 Y75.734 E.15584
G1 X118.326 Y80.619 E.15584
G1 X115.71 Y84.845 E.15584
G1 X111.743 Y87.841 E.15584
G1 X106.963 Y89.201 E.15584
G1 X102.014 Y88.742 E.15584
G1 X97.564 Y86.527 E.15584
G1 X94.216 Y82.854 E.15584
G1 X92.42 Y78.219 E.15584
G1 X92.42 Y73.248 E.15584
G1 X94.216 Y68.614 E.15584
G1 X97.564 Y64.941 E.15584
G1 X101.959 Y62.752 E.15395
M204 P1000
G1 X101.908 Y62.356 F9000
M204 P800
;TYPE:External perimeter
G1 F1200
G1 X107.02 Y61.891 E.16093
G1 X111.914 Y63.283 E.15956
G1 X115.993 Y66.364 E.16026
G1 X118.684 Y70.709 E.16026
G1 X119.623 Y75.734 E.16026
G1 X118.684 Y80.758 E.16026
G1 X115.993 Y85.104 E.16026
G1 X111.914 Y88.184 E.16026
G1 X106.998 Y89.583 E.16026
G1 X101.909 Y89.111 E.16026
G1 X97.333 Y86.833 E.16026
G1 X93.89 Y83.056 E.16026
G1 X92.043 Y78.289 E.16026
G1 X92.043 Y73.178 E.16026
G1 X93.89 Y68.412 E.16026
G1 X97.333 Y64.634 E.16026
G1 X101.855 Y62.383 E.15838
M204 P1000
G1 X102.195 Y62.635 F9000
G1 E-2.24 F4200
;WIPE_START
G1 F7200
G1 X103.493 Y62.227 E-.912
;WIPE_END
G1 E-.048 F4200
G1 Z.4 F720
G1 X116.242 Y75.626 F9000
G1 Z.2 F720
G1 E3.2 F2400
M204 P800
;TYPE:Perimeter
G1 F1200
G1 X116.206 Y75.734 E.00358
G1 X116.151 Y77.015 E.04019
G1 X116.016 Y77.888 E.0277
G1 X115.807 Y78.746 E.02771
G1 X115.502 Y79.64 E.02959
G1 X114.976 Y80.777 E.03931
G1 X114.518 Y81.548 E.02809
G1 X113.73 Y82.6 E.04121
G1 X113.122 Y83.257 E.0281
G1 X112.467 Y83.853 E.02774
G1 X111.716 Y84.425 E.0296
G1 X110.643 Y85.078 E.03938
G1 X109.434 Y85.624 E.04161
G1 X108.582 Y85.906 E.02812
G1 X107.721 Y86.112 E.02776
G1 X106.846 Y86.244 E.02776
G1 X105.531 Y86.304 E.04127
G1 X104.635 Y86.252 E.02813
G1 X103.759 Y86.126 E.02776
G1 X102.895 Y85.926 E.02779
G1 X101.997 Y85.634 E.02962
G1 X100.847 Y85.124 E.03943
G1 X100.068 Y84.678 E.02814
G1 X99.339 Y84.175 E.02778
G1 X98.655 Y83.612 E.02778
G1 X98.02 Y82.994 E.02778
G1 X97.402 Y82.278 E.02964
G1 X96.682 Y81.243 E.03954
G1 X96.222 Y80.407 E.02991
G1 X95.734 Y79.248 E.03945
G1 X95.471 Y78.389 E.02815
G1 X95.31 Y77.641 E.02399
G1 X95.171 Y76.644 E.03158
G1 X95.132 Y75.758 E.02779
G1 X95.166 Y74.873 E.02779
G1 X95.275 Y73.993 E.02779
G1 X95.457 Y73.125 E.02781
G1 X95.711 Y72.276 E.02779
G1 X96.035 Y71.451 E.0278
G1 X96.427 Y70.656 E.0278
G1 X97.13 Y69.541 E.04132
G1 X97.686 Y68.835 E.02815
G1 X98.291 Y68.187 E.0278
G1 X98.948 Y67.593 E.0278
G1 X100.013 Y66.815 E.04134
G1 X100.842 Y66.336 E.03002
G1 X101.992 Y65.824 E.03947
G1 X102.845 Y65.543 E.02816
G1 X103.766 Y65.328 E.02966
G1 X105.015 Y65.17 E.03947
G1 X105.893 Y65.148 E.02754
G1 X106.758 Y65.199 E.02717
G1 X107.675 Y65.329 E.02906
G1 X108.596 Y65.546 E.02966
G1 X109.785 Y65.96 E.03947
G1 X110.978 Y66.547 E.04169
G1 X111.738 Y67.025 E.02817
G1 X112.491 Y67.598 E.02966
G1 X113.409 Y68.46 E.03948
G1 X113.999 Y69.138 E.02817
G1 X114.522 Y69.854 E.02781
G1 X114.983 Y70.611 E.02781
G1 X115.379 Y71.405 E.02781
G1 X115.842 Y72.639 E.04133
G1 X116.068 Y73.509 E.02817
G1 X116.218 Y74.383 E.02781
G1 X116.298 Y75.328 E.02975
G1 X116.291 Y75.479 E.00473
G1 X116.261 Y75.569 E.00297
M204 P1000
G1 X115.856 Y75.538 F9000
M204 P800
;TYPE:External perimeter
G1 F1200
G1 X115.828 Y75.593 E.00194
G1 X115.831 Y76.143 E.01725
G1 X115.775 Y76.989 E.02659
G1 X115.644 Y77.829 E.02667
G1 X115.441 Y78.656 E.02669
G1 X115.16 Y79.481 E.02733
G1 X114.633 Y80.619 E.03931
G1 X114.195 Y81.354 E.02684
G1 X113.429 Y82.373 E.03996
G1 X112.846 Y83 E.02686
G1 X112.214 Y83.573 E.02675
G1 X111.52 Y84.103 E.02737
G1 X110.447 Y84.756 E.03938
G1 X109.28 Y85.28 E.04013
G1 X108.465 Y85.548 E.02688
G1 X107.634 Y85.745 E.02677
G1 X106.79 Y85.871 E.02677
G1 X105.515 Y85.928 E.04003
G1 X104.658 Y85.876 E.02689
G1 X103.813 Y85.753 E.02677
G1 X102.981 Y85.559 E.0268
G1 X102.15 Y85.29 E.0274
G1 X101.001 Y84.779 E.03943
G1 X100.257 Y84.352 E.0269
G1 X99.554 Y83.865 E.02679
G1 X98.895 Y83.322 E.02679
G1 X98.283 Y82.725 E.02679
G1 X97.712 Y82.063 E.02741
G1 X96.993 Y81.03 E.03947
G1 X96.57 Y80.261 E.0275
G1 X96.082 Y79.102 E.03945
G1 X95.832 Y78.28 E.02692
G1 X95.679 Y77.563 E.023
G1 X95.545 Y76.596 E.03059
G1 X95.508 Y75.742 E.0268
G1 X95.543 Y74.888 E.0268
G1 X95.649 Y74.04 E.0268
G1 X95.826 Y73.203 E.02682
G1 X96.072 Y72.385 E.0268
G1 X96.386 Y71.59 E.02681
G1 X96.765 Y70.823 E.02681
G1 X97.449 Y69.743 E.04008
G1 X97.981 Y69.069 E.02692
G1 X98.566 Y68.446 E.02681
G1 X99.201 Y67.873 E.02681
G1 X100.234 Y67.12 E.0401
G1 X100.995 Y66.68 E.02754
G1 X102.145 Y66.168 E.03947
G1 X102.961 Y65.902 E.02693
G1 X103.813 Y65.702 E.02743
G1 X105.062 Y65.544 E.03947
G1 X105.901 Y65.525 E.0263
G1 X106.735 Y65.575 E.02619
G1 X107.62 Y65.702 E.02806
G1 X108.472 Y65.902 E.02743
G1 X109.661 Y66.316 E.03947
G1 X110.811 Y66.884 E.04021
G1 X111.536 Y67.344 E.02693
G1 X112.233 Y67.873 E.02743
G1 X113.151 Y68.735 E.03948
G1 X113.713 Y69.384 E.02693
G1 X114.217 Y70.076 E.02682
G1 X114.66 Y70.807 E.02682
G1 X115.041 Y71.573 E.02682
G1 X115.488 Y72.771 E.0401
G1 X115.703 Y73.603 E.02693
G1 X115.846 Y74.446 E.02682
G1 X115.923 Y75.359 E.02875
G1 X115.92 Y75.41 E.00158
G1 X115.883 Y75.484 E.00261
M204 P1000
G1 X115.891 Y75.588 F9000
G1 E-2.24 F4200
;WIPE_START
G1 F7200
G1 X115.828 Y75.593 E-.06754
G1 X115.831 Y76.143 E-.30488
G1 X115.775 Y76.989 E-.46988
G1 X115.755 Y77.113 E-.0697
;WIPE_END
G1 E-.048 F4200
G1 Z.4 F720
G1 X116.897 Y68.754 F9000
G1 Z.2 F720
G1 E3.2 F2400
M204 P800
;TYPE:Solid infill
;WIDTH:0.424561
G1 F1200
G1 X113.297 Y65.154 E.16157
G1 X111.615 Y63.884 E.06688
G1 X111.436 Y63.833 E.0059
G1 X117.251 Y69.648 E.26093
G1 X118.058 Y70.952 E.04868
G1 X118.068 Y71.005 E.00171
G1 X110.682 Y63.619 E.33147
G1 X109.928 Y63.404 E.02489
G1 X118.192 Y71.669 E.37089
G1 X118.316 Y72.332 E.02143
G1 X109.173 Y63.189 E.41032
G1 X108.419 Y62.975 E.02489
G1 X118.44 Y72.996 E.44974
