; generated by PrusaSlicer 2.2.0+win64 on 2020-06-09 at 19:45:13 UTC


;
;

;
;
; 

; external perimeters extrusion width = 0.45mm
; perimeters extrusion width = 0.45mm
; infill extrusion width = 0.45mm
; solid infill extrusion width = 0.45mm
; top infill extrusion width = 0.40mm
; first layer extrusion width = 0.42mm

M73 P0 R32
M201 X1250 Y1250 Z400 E5000 ; sets maximum accelerations, mm/sec^2
M203 X180 Y180 Z12 E80 ; sets maximum feedrates, mm/sec
M204 P1250 R1250 T1250 ; sets acceleration (P, T) and retract acceleration (R), mm/sec^2
M205 X8.00 Y8.00 Z2.00 E10.00 ; sets the jerk limits, mm/sec
M205 S0 T0 ; sets the minimum extruding and travel feed rate, mm/sec
M107
G90 ; use absolute coordinates
M83 ; extruder relative mode
M104 S170 ; set extruder temp for bed leveling
M140 S60 ; set bed temp
M109 R170 ; wait for bed leveling temp
M190 S60 ; wait for bed temp
G28 ; home all without mesh bed level
G29 ; mesh bed leveling 
M104 S215 ; set extruder temp
G92 E0.0
G1 Y-2.0 X179 F2400
G1 Z3 F720
M109 S215 ; wait for extruder temp

; intro line
G1 X170 F1000
G1 Z0.2 F720
G1 X110.0 E8.0 F900
M73 P0 R32
G1 X40.0 E10.0 F700
G92 E0.0

M221 S95 ; set flow
G21 ; set units to millimeters
G90 ; use absolute coordinates
M83 ; use relative distances for extrusion
M900 K0.2 ; Filament gcode LA 1.5
; ; Filament gcode LA 1.0
;BEFORE_LAYER_CHANGE
G92 E0.0
;0.2


G1 Z0.200 F9000.000
;AFTER_LAYER_CHANGE
;0.2
G1 E-3.20000 F4200.00000
G1 Z0.400 F9000.000
G1 X110.131 Y101.516
G1 Z0.200
G1 E3.20000 F2400.00000
M204 S800
G1 F1200.000
G1 X109.639 Y102.252 E0.02777
G1 X109.230 Y102.612 E0.01707
G1 X108.759 Y102.884 E0.01707
G1 X108.243 Y103.058 E0.01707
G1 X107.707 Y103.127 E0.01694
G1 X82.762 Y103.129 E0.78212
G1 X81.549 Y103.076 E0.03808
G1 X80.271 Y102.902 E0.04042
G1 X79.171 Y102.648 E0.03540
G1 X77.774 Y102.177 E0.04622
G1 X76.759 Y101.719 E0.03493
G1 X75.704 Y101.117 E0.03809
G1 X74.716 Y100.422 E0.03787
G1 X73.806 Y99.642 E0.03758
G1 X72.950 Y98.754 E0.03866
G1 X72.251 Y97.879 E0.03512
G1 X71.468 Y96.685 E0.04478
G1 X70.629 Y94.976 E0.05969
G1 X70.221 Y93.840 E0.03784
G1 X69.918 Y92.689 E0.03734
G1 X69.693 Y91.286 E0.04454
G1 X69.622 Y90.172 E0.03502
G1 X69.654 Y88.967 E0.03777
G1 X69.831 Y87.619 E0.04263
G1 X70.076 Y86.550 E0.03438
G1 X70.447 Y85.417 E0.03740
G1 X70.937 Y84.294 E0.03840
G1 X71.479 Y83.312 E0.03517
G1 X72.280 Y82.134 E0.04468
G1 X73.540 Y80.702 E0.05979
G1 X74.434 Y79.886 E0.03795
G1 X75.390 Y79.162 E0.03760
G1 X76.596 Y78.421 E0.04437
G1 X77.597 Y77.929 E0.03498
G1 X78.729 Y77.498 E0.03798
G1 X79.884 Y77.179 E0.03759
G1 X80.972 Y76.986 E0.03463
G1 X82.400 Y76.871 E0.04491
G1 X84.660 Y77.023 E0.07103
G1 X86.061 Y77.319 E0.04489
G1 X87.847 Y77.929 E0.05917
G1 X88.998 Y78.476 E0.03997
G1 X90.037 Y79.091 E0.03787
G1 X109.501 Y93.264 E0.75490
G1 X109.865 Y93.679 E0.01733
G1 X110.140 Y94.159 E0.01733
G1 X110.313 Y94.683 E0.01733
G1 X110.378 Y95.236 E0.01745
G1 X110.363 Y100.661 E0.17009
G1 X110.146 Y101.458 E0.02589
M204 S1250
G1 E-2.24000 F4200.00000
G1 F7200.000
G1 X109.639 Y102.252 E-0.52254
G1 X109.230 Y102.612 E-0.30169
G1 X109.093 Y102.691 E-0.08777
G1 E-0.04800 F4200.00000
G1 Z0.400 F9000.000
G1 X108.611 Y102.537
G1 Z0.200
G1 E3.20000 F2400.00000
M204 S800
G1 F1200.000
G1 X107.686 Y102.751 E0.02977
G1 X81.575 Y102.700 E0.81870
G1 X80.339 Y102.531 E0.03912
G1 X79.258 Y102.281 E0.03479
G1 X77.929 Y101.833 E0.04396
G1 X76.932 Y101.385 E0.03428
G1 X75.908 Y100.801 E0.03695
G1 X74.949 Y100.126 E0.03676
G1 X74.077 Y99.379 E0.03601
G1 X73.233 Y98.505 E0.03811
G1 X72.549 Y97.648 E0.03437
G1 X71.799 Y96.504 E0.04291
G1 X70.981 Y94.840 E0.05812
G1 X70.581 Y93.728 E0.03707
G1 X70.286 Y92.605 E0.03639
G1 X70.069 Y91.258 E0.04280
G1 X69.999 Y90.164 E0.03437
G1 X70.030 Y88.994 E0.03670
G1 X70.199 Y87.703 E0.04081
G1 X70.438 Y86.654 E0.03375
G1 X70.799 Y85.553 E0.03632
G1 X71.276 Y84.460 E0.03740
G1 X71.809 Y83.496 E0.03454
G1 X72.577 Y82.367 E0.04282
G1 X73.799 Y80.975 E0.05808
G1 X74.673 Y80.178 E0.03708
G1 X75.607 Y79.470 E0.03673
G1 X76.765 Y78.758 E0.04264
G1 X77.745 Y78.276 E0.03423
G1 X78.847 Y77.856 E0.03698
G1 X79.969 Y77.546 E0.03649
G1 X81.036 Y77.357 E0.03398
G1 X82.398 Y77.249 E0.04285
G1 X84.612 Y77.397 E0.06956
G1 X85.953 Y77.680 E0.04299
G1 X87.693 Y78.273 E0.05762
G1 X88.822 Y78.809 E0.03919
G1 X89.846 Y79.417 E0.03735
G1 X109.232 Y93.529 E0.75181
G1 X109.792 Y94.305 E0.03001
G1 X110.001 Y95.239 E0.03001
G1 X109.991 Y100.595 E0.16794
G1 X109.796 Y101.340 E0.02414
G1 X109.376 Y101.981 E0.02402
G1 X108.660 Y102.501 E0.02778
M204 S1250
G1 E-2.24000 F4200.00000
G1 F7200.000
G1 X107.686 Y102.751 E-0.55701
G1 X107.046 Y102.749 E-0.35499
G1 E-0.04800 F4200.00000
G1 Z0.400 F9000.000
G1 X106.837 Y99.587
G1 Z0.200
G1 E3.20000 F2400.00000
M204 S800
G1 F1200.000
G1 X82.784 Y99.587 E0.75417
G1 X81.821 Y99.544 E0.03022
G1 X80.905 Y99.417 E0.02901
G1 X80.023 Y99.210 E0.02840
G1 X79.177 Y98.925 E0.02798
G1 X78.370 Y98.565 E0.02770
G1 X77.609 Y98.131 E0.02749
G1 X76.892 Y97.627 E0.02748
G1 X76.224 Y97.054 E0.02759
G1 X75.610 Y96.415 E0.02779
G1 X75.052 Y95.711 E0.02816
G1 X74.551 Y94.940 E0.02882
G1 X74.221 Y94.327 E0.02185
G1 X73.926 Y93.683 E0.02220
G1 X73.603 Y92.789 E0.02980
G1 X73.370 Y91.893 E0.02902
G1 X73.223 Y91.000 E0.02839
G1 X73.164 Y90.109 E0.02799
G1 X73.187 Y89.226 E0.02772
G1 X73.295 Y88.357 E0.02744
G1 X73.488 Y87.501 E0.02751
G1 X73.762 Y86.666 E0.02756
G1 X74.118 Y85.852 E0.02785
G1 X74.555 Y85.068 E0.02816
G1 X75.075 Y84.309 E0.02885
G1 X75.513 Y83.771 E0.02175
G1 X75.997 Y83.252 E0.02224
G1 X76.699 Y82.610 E0.02983
G1 X77.436 Y82.053 E0.02896
G1 X78.208 Y81.575 E0.02847
G1 X79.006 Y81.179 E0.02796
G1 X79.831 Y80.865 E0.02766
G1 X80.676 Y80.631 E0.02749
G1 X81.540 Y80.481 E0.02749
G1 X82.417 Y80.413 E0.02760
G1 X83.302 Y80.432 E0.02775
G1 X84.197 Y80.534 E0.02823
G1 X85.096 Y80.726 E0.02883
G1 X85.762 Y80.925 E0.02179
G1 X86.424 Y81.172 E0.02216
G1 X87.335 Y81.603 E0.03161
G1 X88.176 Y82.104 E0.03068
G1 X88.947 Y82.675 E0.03008
G1 X89.645 Y83.310 E0.02958
G1 X90.268 Y84.004 E0.02924
G1 X90.815 Y84.755 E0.02913
G1 X91.283 Y85.558 E0.02914
G1 X91.668 Y86.411 E0.02934
G1 X91.972 Y87.307 E0.02968
G1 X92.189 Y88.264 E0.03075
G1 X92.763 Y91.480 E0.10245
G1 X93.114 Y92.587 E0.03640
G1 X93.475 Y93.448 E0.02926
G1 X93.814 Y94.070 E0.02221
G1 X94.209 Y94.636 E0.02165
G1 X94.520 Y94.992 E0.01483
G1 X94.867 Y95.312 E0.01478
G1 X95.254 Y95.587 E0.01490
G1 X95.685 Y95.811 E0.01524
G1 X96.137 Y95.964 E0.01494
G1 X96.413 Y96.024 E0.00885
G1 X96.889 Y96.067 E0.01501
G1 X106.837 Y96.067 E0.31190
G1 X106.837 Y99.527 E0.10849
M204 S1250
G1 X107.214 Y99.964 F9000.000
M204 S800
G1 F1200.000
G1 X82.775 Y99.964 E0.76626
G1 X81.786 Y99.920 E0.03104
G1 X80.836 Y99.788 E0.03011
G1 X79.919 Y99.573 E0.02950
G1 X79.040 Y99.277 E0.02910
G1 X78.200 Y98.902 E0.02884
G1 X77.407 Y98.450 E0.02863
G1 X76.660 Y97.925 E0.02861
G1 X75.965 Y97.328 E0.02873
G1 X75.325 Y96.663 E0.02892
G1 X74.745 Y95.932 E0.02928
G1 X74.226 Y95.133 E0.02987
G1 X73.883 Y94.495 E0.02272
G1 X73.577 Y93.826 E0.02307
G1 X73.243 Y92.901 E0.03083
G1 X73.001 Y91.972 E0.03010
G1 X72.847 Y91.043 E0.02951
G1 X72.786 Y90.117 E0.02911
G1 X72.810 Y89.197 E0.02884
G1 X72.923 Y88.292 E0.02860
G1 X73.124 Y87.401 E0.02865
G1 X73.409 Y86.532 E0.02868
G1 X73.779 Y85.685 E0.02898
G1 X74.234 Y84.869 E0.02927
G1 X74.773 Y84.083 E0.02989
G1 X75.228 Y83.523 E0.02264
G1 X75.731 Y82.984 E0.02311
G1 X76.457 Y82.320 E0.03085
G1 X77.222 Y81.742 E0.03006
G1 X78.024 Y81.245 E0.02957
G1 X78.855 Y80.833 E0.02909
G1 X79.713 Y80.506 E0.02879
G1 X80.593 Y80.263 E0.02863
G1 X81.493 Y80.107 E0.02862
G1 X82.407 Y80.036 E0.02874
G1 X83.328 Y80.055 E0.02888
G1 X84.258 Y80.162 E0.02935
G1 X85.189 Y80.361 E0.02987
G1 X85.882 Y80.567 E0.02266
G1 X86.571 Y80.824 E0.02307
G1 X87.513 Y81.270 E0.03267
G1 X88.385 Y81.790 E0.03183
G1 X89.186 Y82.384 E0.03126
G1 X89.913 Y83.044 E0.03078
G1 X90.561 Y83.766 E0.03044
G1 X91.131 Y84.548 E0.03033
G1 X91.618 Y85.385 E0.03036
G1 X92.019 Y86.272 E0.03053
G1 X92.335 Y87.205 E0.03088
G1 X92.558 Y88.189 E0.03163
G1 X93.130 Y91.390 E0.10196
G1 X93.468 Y92.457 E0.03510
G1 X93.816 Y93.284 E0.02813
G1 X94.135 Y93.871 E0.02096
G1 X94.507 Y94.403 E0.02035
G1 X94.791 Y94.729 E0.01355
G1 X95.105 Y95.018 E0.01339
G1 X95.452 Y95.265 E0.01333
G1 X95.834 Y95.463 E0.01351
G1 X96.238 Y95.600 E0.01337
G1 X96.470 Y95.651 E0.00745
G1 X96.906 Y95.690 E0.01374
G1 X107.214 Y95.690 E0.32319
G1 X107.214 Y99.904 E0.13214
M204 S1250
G1 X106.818 Y99.912 F9000.000
G1 E-2.24000 F4200.00000
G1 F7200.000
G1 X105.568 Y99.908 E-0.91200
G1 E-0.04800 F4200.00000
G1 Z0.400 F9000.000
G1 X106.724 Y96.951
G1 Z0.200
G1 E3.20000 F2400.00000
M204 S800
G1 F1200.000
G1 X106.122 Y96.350 E0.02698
G1 X105.583 Y96.350 E0.01710
G1 X106.554 Y97.321 E0.04355
G1 X106.554 Y97.860 E0.01710
G1 X105.044 Y96.350 E0.06773
G1 X104.504 Y96.350 E0.01710
G1 X106.554 Y98.400 E0.09191
G1 X106.554 Y98.939 E0.01710
G1 X103.965 Y96.350 E0.11609
G1 X103.426 Y96.350 E0.01710
G1 X106.381 Y99.304 E0.13249
G1 X105.841 Y99.304 E0.01710
G1 X102.887 Y96.350 E0.13249
G1 X102.347 Y96.350 E0.01710
G1 X105.302 Y99.304 E0.13249
G1 X104.763 Y99.304 E0.01710
G1 X101.808 Y96.350 E0.13249
G1 X101.269 Y96.350 E0.01710
G1 X104.224 Y99.304 E0.13249
G1 X103.684 Y99.304 E0.01710
G1 X100.730 Y96.350 E0.13249
G1 X100.190 Y96.350 E0.01710
G1 X103.145 Y99.304 E0.13249
G1 X102.606 Y99.304 E0.01710
G1 X99.651 Y96.350 E0.13249
G1 X99.112 Y96.350 E0.01710
G1 X102.066 Y99.304 E0.13249
G1 X101.527 Y99.304 E0.01710
G1 X98.572 Y96.350 E0.13249
G1 X98.033 Y96.350 E0.01710
G1 X100.988 Y99.304 E0.13249
G1 X100.449 Y99.304 E0.01710
G1 X97.494 Y96.350 E0.13249
G1 X96.955 Y96.350 E0.01710
G1 X99.909 Y99.304 E0.13249
G1 X99.370 Y99.304 E0.01710
G1 X96.370 Y96.304 E0.13453
G1 X96.061 Y96.237 E0.01001
G1 X95.611 Y96.085 E0.01507
G1 X98.831 Y99.304 E0.14437
G1 X98.291 Y99.304 E0.01710
G1 X80.077 Y81.090 E0.81676
G1 X79.674 Y81.227 E0.01348
G1 X97.752 Y99.304 E0.81062
G1 X97.213 Y99.304 E0.01710
G1 X79.284 Y81.375 E0.80395
G1 X78.911 Y81.542 E0.01295
G1 X96.674 Y99.304 E0.79650
G1 X96.134 Y99.304 E0.01710
G1 X78.550 Y81.720 E0.78848
G1 X78.202 Y81.911 E0.01260
G1 X95.595 Y99.304 E0.77993
G1 X95.056 Y99.304 E0.01710
G1 X77.869 Y82.117 E0.77068
G1 X77.540 Y82.328 E0.01237
G1 X94.517 Y99.304 E0.76122
G1 X93.977 Y99.304 E0.01710
G1 X77.233 Y82.560 E0.75082
G1 X76.926 Y82.793 E0.01221
G1 X93.438 Y99.304 E0.74041
G1 X92.899 Y99.304 E0.01710
G1 X76.641 Y83.046 E0.72903
G1 X76.359 Y83.304 E0.01210
G1 X92.359 Y99.304 E0.71748
G1 X91.820 Y99.304 E0.01710
G1 X76.086 Y83.571 E0.70552
G1 X75.826 Y83.849 E0.01210
G1 X91.281 Y99.304 E0.69302
G1 X90.742 Y99.304 E0.01710
G1 X75.577 Y84.140 E0.68000
G1 X75.335 Y84.437 E0.01215
G1 X90.202 Y99.304 E0.66667
G1 X89.663 Y99.304 E0.01710
G1 X75.113 Y84.754 E0.65246
G1 X74.893 Y85.074 E0.01230
G1 X89.124 Y99.304 E0.63811
G1 X88.585 Y99.304 E0.01710
G1 X74.689 Y85.409 E0.62311
G1 X74.496 Y85.755 E0.01257
G1 X88.045 Y99.304 E0.60758
G1 X87.506 Y99.304 E0.01710
G1 X74.313 Y86.111 E0.59159
G1 X74.149 Y86.487 E0.01298
G1 X86.967 Y99.304 E0.57476
G1 X86.427 Y99.304 E0.01710
G1 X73.993 Y86.870 E0.55759
G1 X73.859 Y87.276 E0.01355
G1 X85.888 Y99.304 E0.53938
M73 P3 R31
G1 X85.349 Y99.304 E0.01710
G1 X73.735 Y87.691 E0.52077
G1 X73.636 Y88.131 E0.01430
G1 X84.810 Y99.304 E0.50104
G1 X84.270 Y99.304 E0.01710
G1 X73.551 Y88.586 E0.48065
G1 X73.492 Y89.065 E0.01533
G1 X83.731 Y99.304 E0.45914
G1 X83.192 Y99.304 E0.01710
G1 X73.461 Y89.573 E0.43635
G1 X73.447 Y90.099 E0.01667
G1 X82.646 Y99.298 E0.41250
G1 X82.082 Y99.273 E0.01791
G1 X73.485 Y90.676 E0.38550
G1 X73.504 Y90.968 E0.00927
G1 X73.556 Y91.287 E0.01026
G1 X81.481 Y99.212 E0.35534
G1 X80.842 Y99.112 E0.02051
G1 X73.676 Y91.946 E0.32134
G1 X73.866 Y92.675 E0.02391
G1 X80.138 Y98.947 E0.28123
G1 X79.330 Y98.678 E0.02698
G1 X74.166 Y93.514 E0.23158
G1 X74.474 Y94.201 E0.02387
G1 X74.662 Y94.549 E0.01254
G1 X78.328 Y98.216 E0.16440
G1 X77.760 Y97.892 E0.02071
G1 X77.065 Y97.404 E0.02693
G1 X76.438 Y96.865 E0.02620
G1 X75.005 Y95.432 E0.06426
M204 S1250
G1 E-2.24000 F4200.00000
G1 F7200.000
G1 X76.169 Y96.596 E-0.91200
G1 E-0.04800 F4200.00000
G1 Z0.400 F9000.000
G1 X93.861 Y94.335
G1 Z0.200
G1 E3.20000 F2400.00000
M204 S800
G1 F1200.000
G1 X80.500 Y80.973 E0.59913
G1 X80.938 Y80.873 E0.01427
G1 X92.918 Y92.853 E0.53720
G1 X92.848 Y92.685 E0.00577
G1 X92.643 Y92.039 E0.02150
G1 X81.398 Y80.793 E0.50426
G1 X81.883 Y80.738 E0.01547
G1 X92.444 Y91.300 E0.47358
G1 X92.326 Y90.643 E0.02115
G1 X82.383 Y80.700 E0.44587
G1 X82.930 Y80.707 E0.01733
G1 X92.209 Y89.986 E0.41610
G1 X92.092 Y89.330 E0.02115
G1 X83.501 Y80.739 E0.38521
G1 X84.110 Y80.809 E0.01943
G1 X91.974 Y88.673 E0.35264
G1 X91.838 Y87.998 E0.02185
G1 X84.791 Y80.950 E0.31602
G1 X85.026 Y81.000 E0.00763
G1 X85.530 Y81.151 E0.01668
G1 X91.666 Y87.286 E0.27512
G1 X91.381 Y86.462 E0.02765
G1 X86.386 Y81.467 E0.22399
G1 X87.202 Y81.853 E0.02864
G1 X87.473 Y82.015 E0.00999
G1 X91.276 Y85.818 E0.17054
M204 S1250
M106 S255
;BEFORE_LAYER_CHANGE
G92 E0.0
;0.4


G1 Z0.400 F9000.000
;AFTER_LAYER_CHANGE
;0.4
M104 S210 ; set temperature
G1 E-3.20000 F4200.00000
G1 Z0.600 F9000.000
G1 X110.131 Y101.516
G1 Z0.400
G1 E3.20000 F2400.00000
G1 X109.639 Y102.252 E0.02777
G1 X109.230 Y102.612 E0.01707
G1 X108.759 Y102.884 E0.01707
G1 X108.243 Y103.058 E0.01707
G1 X107.707 Y103.127 E0.01694
G1 X82.762 Y103.129 E0.78212
G1 X81.549 Y103.076 E0.03808
G1 X80.271 Y102.902 E0.04042
G1 X79.171 Y102.648 E0.03540
G1 X77.774 Y102.177 E0.04622
G1 X76.759 Y101.719 E0.03493
G1 X75.704 Y101.117 E0.03809
G1 X74.716 Y100.422 E0.03787
G1 X73.806 Y99.642 E0.03758
G1 X72.950 Y98.754 E0.03866
G1 X72.251 Y97.879 E0.03512
G1 X71.468 Y96.685 E0.04478
G1 X70.629 Y94.976 E0.05969
G1 X70.221 Y93.840 E0.03784
G1 X69.918 Y92.689 E0.03734
G1 X69.693 Y91.286 E0.04454
G1 X69.622 Y90.172 E0.03502
G1 X69.654 Y88.967 E0.03777
G1 X69.831 Y87.619 E0.04263
G1 X70.076 Y86.550 E0.03438
G1 X70.447 Y85.417 E0.03740
G1 X70.937 Y84.294 E0.03840
G1 X71.479 Y83.312 E0.03517
G1 X72.280 Y82.134 E0.04468
G1 X73.540 Y80.702 E0.05979
G1 X74.434 Y79.886 E0.03795
G1 X75.390 Y79.162 E0.03760
G1 X76.596 Y78.421 E0.04437
G1 X77.597 Y77.929 E0.03498
G1 X78.729 Y77.498 E0.03798
G1 X79.884 Y77.179 E0.03759
G1 X80.972 Y76.986 E0.03463
G1 X82.400 Y76.871 E0.04491
G1 X84.660 Y77.023 E0.07103
G1 X86.061 Y77.319 E0.04489
G1 X87.847 Y77.929 E0.05917
G1 X88.998 Y78.476 E0.03997
G1 X90.037 Y79.091 E0.03787
G1 X109.501 Y93.264 E0.75490
G1 X109.865 Y93.679 E0.01733
G1 X110.140 Y94.159 E0.01733
G1 X110.313 Y94.683 E0.01733
G1 X110.378 Y95.236 E0.01745
G1 X110.363 Y100.661 E0.17009
G1 X110.146 Y101.458 E0.02589
G1 E-2.24000 F4200.00000
G1 F7200.000
G1 X109.639 Y102.252 E-0.52254
G1 X109.230 Y102.612 E-0.30169
G1 X109.093 Y102.691 E-0.08777
G1 E-0.04800 F4200.00000
G1 Z0.600 F9000.000
G1 X108.611 Y102.537
G1 Z0.400
G1 E3.20000 F2400.00000
G1 X107.686 Y102.751 E0.02977
G1 X81.575 Y102.700 E0.81870
G1 X80.339 Y102.531 E0.03912
G1 X79.258 Y102.281 E0.03479
G1 X77.929 Y101.833 E0.04396
G1 X76.932 Y101.385 E0.03428
G1 X75.908 Y100.801 E0.03695
G1 X74.949 Y100.126 E0.03676
G1 X74.077 Y99.379 E0.03601
G1 X73.233 Y98.505 E0.03811
G1 X72.549 Y97.648 E0.03437
G1 X71.799 Y96.504 E0.04291
G1 X70.981 Y94.840 E0.05812
G1 X70.581 Y93.728 E0.03707
G1 X70.286 Y92.605 E0.03639
G1 X70.069 Y91.258 E0.04280
G1 X69.999 Y90.164 E0.03437
G1 X70.030 Y88.994 E0.03670
G1 X70.199 Y87.703 E0.04081
G1 X70.438 Y86.654 E0.03375
G1 X70.799 Y85.553 E0.03632
G1 X71.276 Y84.460 E0.03740
G1 X71.809 Y83.496 E0.03454
G1 X72.577 Y82.367 E0.04282
G1 X73.799 Y80.975 E0.05808
G1 X74.673 Y80.178 E0.03708
G1 X75.607 Y79.470 E0.03673
G1 X76.765 Y78.758 E0.04264
G1 X77.745 Y78.276 E0.03423
G1 X78.847 Y77.856 E0.03698
G1 X79.969 Y77.546 E0.03649
G1 X81.036 Y77.357 E0.03398
G1 X82.398 Y77.249 E0.04285
G1 X84.612 Y77.397 E0.06956
G1 X85.953 Y77.680 E0.04299
G1 X87.693 Y78.273 E0.05762
G1 X88.822 Y78.809 E0.03919
G1 X89.846 Y79.417 E0.03735
G1 X109.232 Y93.529 E0.75181
G1 X109.792 Y94.305 E0.03001
G1 X110.001 Y95.239 E0.03001
G1 X109.991 Y100.595 E0.16794
