; generated by PrusaSlicer 2.5.0+win64 on 2023-01-11 at 13:35:27 UTC


;
;

;
;
; 

; external perimeters extrusion width = 0.40mm
; perimeters extrusion width = 0.40mm
; infill extrusion width = 0.45mm
; solid infill extrusion width = 0.45mm
; top infill extrusion width = 0.40mm
; first layer extrusion width = 0.42mm

M73 P0 R76
M201 X2500 Y2500 Z400 E5000 ; sets maximum accelerations, mm/sec^2
M203 X180 Y180 Z12 E80 ; sets maximum feedrates, mm / sec
M204 P1250 R1250 T2500 ; sets acceleration (P, T) and retract acceleration (R), mm/sec^2
M205 X8.00 Y8.00 Z2.00 E10.00 ; sets the jerk limits, mm/sec
M205 S0 T0 ; sets the minimum extruding and travel feed rate, mm/sec
M107
;TYPE:Custom
M862.3 P "MINI" ; printer model check
G90 ; use absolute coordinates
M83 ; extruder relative mode
M104 S170 ; set extruder temp for bed leveling
M140 S60 ; set bed temp
M109 R170 ; wait for bed leveling temp
M190 S60 ; wait for bed temp
M204 T1250 ; set travel acceleration
G28 ; home all without mesh bed level
G29 ; mesh bed leveling 
M204 T2500 ; restore travel acceleration
M104 S215 ; set extruder temp
G92 E0
G1 Y-2 X179 F2400
G1 Z3 F720
M109 S215 ; wait for extruder temp

; intro line
G1 X170 F1000
G1 Z0.2 F720
G1 X110 E8 F900
G1 X40 E10 F700
G92 E0

M221 S95 ; set flow
G21 ; set units to millimeters
G90 ; use absolute coordinates
M83 ; use relative distances for extrusion
M900 K0.2 ; Filament gcode LA 1.5
; ; Filament gcode LA 1.0
M107
;LAYER_CHANGE
;Z:0.2
;HEIGHT:0.2
;BEFORE_LAYER_CHANGE
G92 E0.0
;0.2


G1 E-3.2 F4200
G1 Z.2 F720
;AFTER_LAYER_CHANGE
;0.2
G1 Z.4
G1 X86.166 Y63.512 F9000
G1 Z.2 F720
G1 E3.2 F2400
M204 P800
;TYPE:Skirt/Brim
;WIDTH:0.42
G1 F1200
G1 X87.16 Y62.577 E.04278
G1 X88.504 Y62.342 E.04278
G1 X89.744 Y62.876 E.04232
G1 X97.59 Y69.404 E.32003
G1 X98.144 Y70.071 E.0272
G1 X101.986 Y76.951 E.24707
G1 X104.404 Y81.919 E.17323
G1 X104.73 Y82.953 E.03399
G1 X105.003 Y84.277 E.0424
G1 X108.102 Y105.337 E.66743
G1 X108.151 Y106.282 E.02967
G1 X107.989 Y107.29 E.03203
G1 X106.881 Y111.026 E.12219
G1 X106.601 Y111.7 E.02287
G1 X104.641 Y115.059 E.12193
G1 X104.084 Y115.6 E.02436
G1 X103.184 Y116.053 E.03159
G1 X102.463 Y116.17 E.02289
G1 X101.627 Y116.087 E.02635
G1 X88.818 Y112.593 E.41629
G1 X88.121 Y112.316 E.0235
G1 X79.339 Y106.815 E.32493
G1 X73.241 Y102.184 E.24009
G1 X72.367 Y101.191 E.04146
G1 X71.937 Y100.213 E.03352
G1 X71.847 Y99.348 E.02724
G1 X71.956 Y98.678 E.02131
G1 X77.197 Y80.653 E.58857
G1 X77.724 Y79.241 E.04723
G1 X81.368 Y71.801 E.25976
G1 X86.136 Y63.564 E.29841
M204 P1000
; printing object WolfKeyChain.stl id:0 copy 0
G1 E-2.24 F4200
;WIPE_START
G1 F7200
G1 X87.16 Y62.577 E-.78803
G1 X87.38 Y62.539 E-.12397
;WIPE_END
G1 E-.048 F4200
G1 Z.4 F720
G1 X81.54 Y81.894 F9000
G1 Z.2 F720
G1 E3.2 F2400
M204 P800
;TYPE:Perimeter
;WIDTH:0.419999
G1 F1200
G1 X81.657 Y81.875 E.00373
G1 X82.225 Y81.67 E.01892
G1 X82.493 Y81.446 E.01095
G1 X82.661 Y81.138 E.01098
G1 X82.705 Y80.791 E.01099
G1 X82.665 Y80.12 E.02105
G1 X82.681 Y79.504 E.01933
G1 X82.875 Y78.16 E.04258
G1 X83.066 Y77.389 E.02492
G1 X83.64 Y77.488 E.01826
G1 X84.111 Y77.326 E.01562
G1 X84.374 Y77.054 E.01186
G1 X84.86 Y76.286 E.02848
G1 X85.58 Y74.949 E.04763
G1 X85.96 Y74.17 E.02717
G1 X86.616 Y72.698 E.05054
G1 X87.497 Y70.469 E.07514
G1 X88.042 Y68.959 E.05035
G1 X88.618 Y67.23 E.05712
G1 X89.312 Y68.336 E.04095
G1 X90.031 Y69.604 E.0457
G1 X90.727 Y70.933 E.04703
G1 X91.387 Y72.267 E.04668
G1 X92.065 Y73.703 E.04978
G1 X93.135 Y76.062 E.08122
G1 X93.355 Y76.31 E.01039
G1 X93.679 Y76.476 E.01141
G1 X94.208 Y76.517 E.01665
G1 X94.617 Y76.43 E.01309
G1 X94.859 Y76.269 E.00912
G1 X95.072 Y75.982 E.0112
G1 X96.003 Y74.043 E.06743
G1 X96.555 Y75.715 E.0552
G1 X97.075 Y77.592 E.06108
G1 X97.454 Y79.139 E.04993
G1 X97.614 Y79.717 E.01882
M73 P0 R75
G1 X97.762 Y80.022 E.01061
G1 X98.018 Y80.262 E.01102
G1 X98.518 Y80.438 E.01662
G1 X99.041 Y80.274 E.01716
G1 X99.268 Y82.298 E.06385
G1 X99.446 Y84.526 E.07008
G1 X99.567 Y84.868 E.01136
G1 X99.791 Y85.125 E.0107
G1 X100.089 Y85.285 E.0106
G1 X100.414 Y85.33 E.01027
G1 X101.354 Y85.296 E.02949
G1 X101.554 Y85.175 E.00734
G1 X101.596 Y85.804 E.01976
G1 X101.581 Y86.463 E.02069
G1 X101.529 Y86.979 E.01624
G1 X101.414 Y87.585 E.01936
G1 X101.208 Y88.428 E.02719
G1 X100.998 Y88.992 E.01886
G1 X100.997 Y89.336 E.0108
G1 X101.137 Y89.684 E.01176
G1 X101.397 Y89.947 E.01159
G1 X101.757 Y90.093 E.0122
G1 X102.27 Y90.157 E.01619
G1 X102.296 Y90.347 E.006
G1 X102.294 Y90.766 E.01313
G1 X102.214 Y91.208 E.01409
G1 X101.989 Y91.692 E.01673
G1 X101.943 Y91.916 E.00717
G1 X101.992 Y92.298 E.01208
G1 X102.403 Y92.76 E.0194
G1 X101.854 Y93.772 E.03609
G1 X101.244 Y95.015 E.04341
G1 X100.786 Y96.045 E.03533
G1 X100.268 Y97.343 E.04382
G1 X100.24 Y97.695 E.01108
G1 X100.508 Y99.907 E.06987
G1 X100.605 Y100.496 E.0187
G1 X100.779 Y101.361 E.02768
G1 X100.885 Y101.643 E.00942
G1 X101.075 Y101.878 E.00949
G1 X104.13 Y104.61 E.1285
G1 X104.454 Y105.329 E.02472
G1 X104.592 Y105.859 E.0172
G1 X104.573 Y106.336 E.01494
G1 X104.394 Y106.659 E.01159
G1 X103.937 Y107.171 E.02152
G1 X103.637 Y107.689 E.01877
G1 X103.537 Y108.037 E.01133
G1 X103.502 Y108.591 E.01742
G1 X103.56 Y109.272 E.02144
G1 X103.534 Y109.809 E.01686
G1 X103.445 Y110.075 E.0088
G1 X103.163 Y110.543 E.01712
G1 X102.767 Y111.136 E.02236
G1 X102.061 Y112.441 E.04653
G1 X101.586 Y112.103 E.01828
G1 X100.357 Y111.123 E.04929
G1 X99.677 Y110.751 E.02431
G1 X99.146 Y110.536 E.01795
G1 X97.103 Y109.862 E.06746
G1 X96.289 Y109.558 E.02724
G1 X95.761 Y109.312 E.01827
G1 X95.013 Y108.834 E.02782
G1 X94.555 Y108.692 E.01503
G1 X93.487 Y108.576 E.03369
G1 X93.051 Y108.463 E.01411
G1 X92.665 Y108.409 E.01224
G1 X92.3 Y108.469 E.01159
G1 X91.931 Y108.645 E.01281
G1 X91.461 Y108.982 E.01813
G1 X91.091 Y109.109 E.01229
G1 X90.552 Y109.207 E.01716
G1 X89.987 Y109.201 E.01773
G1 X89.71 Y108.875 E.01339
G1 X89.338 Y108.514 E.01626
G1 X88.762 Y108.073 E.02275
G1 X87.887 Y107.493 E.03292
G1 X86.608 Y106.73 E.04669
G1 X85.567 Y106.149 E.0374
G1 X83.92 Y105.278 E.05838
G1 X82.314 Y104.481 E.05623
G1 X81.827 Y104.214 E.01741
G1 X81.371 Y103.905 E.01729
G1 X80.559 Y102.937 E.03962
G1 X79.912 Y102.358 E.02721
G1 X79.038 Y101.745 E.03347
G1 X76.806 Y100.391 E.08184
G1 X75.738 Y99.652 E.04072
G1 X76.5 Y99.434 E.02483
G1 X78.567 Y99.003 E.0662
G1 X79.338 Y98.77 E.02527
G1 X79.914 Y98.479 E.02023
G1 X80.232 Y98.176 E.01377
G1 X80.474 Y97.761 E.01508
G1 X80.58 Y97.26 E.01606
G1 X80.535 Y96.733 E.01659
G1 X80.179 Y95.401 E.04322
G1 X80.082 Y94.889 E.01634
G1 X80.01 Y94.29 E.01893
G1 X79.962 Y93.181 E.0348
G1 X80.006 Y91.769 E.04429
G1 X79.966 Y91.465 E.0096
G1 X79.695 Y90.573 E.02926
G1 X79.503 Y89.687 E.02841
G1 X79.421 Y89.066 E.01962
G1 X79.37 Y88.3 E.02408
G1 X79.867 Y88.191 E.01597
G1 X80.041 Y88.06 E.00683
G1 X80.257 Y87.751 E.01183
G1 X80.333 Y87.387 E.01166
G1 X80.337 Y86.783 E.01893
G1 X80.253 Y85.118 E.05226
G1 X80.259 Y84.018 E.0345
G1 X80.289 Y83.495 E.01644
G1 X80.366 Y82.77 E.02286
G1 X80.485 Y82.09 E.02164
G1 X80.627 Y81.552 E.01742
G1 X80.676 Y81.625 E.00273
G1 X80.986 Y81.843 E.01191
G1 X81.368 Y81.922 E.01223
G1 X81.48 Y81.903 E.00356
M204 P1000
G1 X81.481 Y81.526 F9000
M204 P800
G1 F1200
G1 X82.108 Y81.296 E.02096
G1 X82.28 Y81.079 E.00869
G1 X82.329 Y80.813 E.00846
G1 X82.288 Y80.127 E.02156
G1 X82.304 Y79.472 E.02053
G1 X82.505 Y78.088 E.04387
G1 X82.852 Y76.688 E.04521
G1 X83.094 Y77.007 E.01255
G1 X83.616 Y77.112 E.01668
G1 X83.86 Y77.038 E.00801
G1 X84.056 Y76.851 E.00848
G1 X84.528 Y76.107 E.02763
G1 X85.242 Y74.784 E.04714
G1 X85.615 Y74.017 E.02676
G1 X86.256 Y72.581 E.04928
G1 X87.142 Y70.341 E.07554
G1 X87.686 Y68.837 E.05014
G1 X88.139 Y67.508 E.04404
G1 X88.41 Y66.617 E.0292
G1 X88.487 Y66.221 E.01263
G1 X88.657 Y66.584 E.01256
G1 X89.636 Y68.143 E.05771
G1 X90.362 Y69.424 E.04616
G1 X91.063 Y70.762 E.04737
G1 X91.726 Y72.103 E.04693
G1 X92.407 Y73.545 E.04999
G1 X93.424 Y75.803 E.07762
G1 X93.559 Y75.989 E.00723
G1 X93.808 Y76.12 E.00883
G1 X94.325 Y76.131 E.0162
G1 X94.604 Y75.991 E.00979
G1 X94.732 Y75.819 E.00672
G1 X95.804 Y73.58 E.07783
G1 X96.033 Y72.955 E.02089
G1 X96.592 Y74.588 E.05411
G1 X96.916 Y75.607 E.03355
G1 X97.44 Y77.497 E.06148
G1 X97.853 Y79.165 E.05389
G1 X98.021 Y79.727 E.01839
G1 X98.22 Y79.944 E.00922
G1 X98.611 Y80.072 E.01291
G1 X99.177 Y79.895 E.01859
G1 X99.374 Y79.613 E.01079
G1 X99.385 Y79.96 E.01088
G1 X99.644 Y82.262 E.07264
G1 X99.815 Y84.433 E.06828
G1 X99.897 Y84.684 E.00829
G1 X100.107 Y84.884 E.00911
G1 X100.4 Y84.954 E.00942
G1 X101.34 Y84.919 E.02949
G1 X101.809 Y84.636 E.01718
G1 X101.886 Y84.502 E.00486
G1 X101.974 Y85.795 E.04065
G1 X101.957 Y86.537 E.02326
G1 X101.902 Y87.035 E.0157
G1 X101.783 Y87.665 E.02013
G1 X101.622 Y88.322 E.0212
G1 X101.359 Y89.15 E.02723
G1 X101.422 Y89.425 E.00886
G1 X101.608 Y89.634 E.00878
G1 X101.824 Y89.722 E.00732
G1 X102.379 Y89.786 E.01752
G1 X102.582 Y89.679 E.0072
G1 X102.687 Y90.426 E.02366
G1 X102.661 Y91.003 E.0181
G1 X102.525 Y91.498 E.01609
G1 X102.421 Y91.664 E.00616
G1 X102.326 Y91.892 E.00775
G1 X102.341 Y92.153 E.0082
G1 X102.638 Y92.501 E.01435
G1 X102.833 Y92.553 E.00633
G1 X102.773 Y92.87 E.01012
G1 X102.193 Y93.938 E.03811
G1 X101.589 Y95.169 E.04297
G1 X101.123 Y96.216 E.03595
G1 X100.653 Y97.381 E.03938
G1 X100.615 Y97.654 E.00865
G1 X100.88 Y99.846 E.06924
G1 X100.975 Y100.421 E.01828
G1 X101.178 Y101.386 E.03091
G1 X101.326 Y101.597 E.00808
G1 X104.434 Y104.377 E.13073
G1 X104.66 Y104.823 E.01568
G1 X104.847 Y105.295 E.01593
G1 X104.967 Y105.819 E.01685
G1 X104.989 Y106.022 E.0064
G1 X104.942 Y106.424 E.0127
G1 X104.696 Y106.887 E.01642
G1 X104.218 Y107.422 E.0225
G1 X103.973 Y107.862 E.01578
G1 X103.912 Y108.07 E.0068
G1 X103.883 Y108.622 E.01734
G1 X103.946 Y109.596 E.0306
G1 X103.854 Y110.081 E.01548
G1 X103.618 Y110.542 E.01623
G1 X102.85 Y111.734 E.04446
G1 X102.242 Y112.962 E.04297
G1 X101.863 Y112.763 E.01342
G1 X101.357 Y112.403 E.01947
G1 X100.163 Y111.446 E.04801
G1 X99.533 Y111.1 E.02252
G1 X99.028 Y110.894 E.0171
G1 X96.978 Y110.218 E.0677
G1 X96.143 Y109.906 E.02794
G1 X95.574 Y109.641 E.01968
G1 X94.937 Y109.212 E.02407
G1 X94.515 Y109.067 E.014
G1 X93.42 Y108.947 E.03454
G1 X92.957 Y108.829 E.01496
G1 X92.558 Y108.79 E.01259
G1 X92.151 Y108.952 E.01372
G1 X91.636 Y109.321 E.01986
G1 X91.054 Y109.521 E.01931
G1 X90.409 Y109.589 E.02031
G1 X89.793 Y109.562 E.01934
G1 X89.554 Y109.253 E.01227
G1 X89.108 Y108.813 E.01964
G1 X88.554 Y108.387 E.02191
G1 X87.679 Y107.807 E.03292
G1 X86.424 Y107.058 E.04582
G1 X85.39 Y106.482 E.0371
G1 X83.753 Y105.616 E.05808
G1 X82.051 Y104.767 E.05962
G1 X81.496 Y104.445 E.02013
G1 X81.068 Y104.138 E.01649
G1 X80.305 Y103.215 E.03756
G1 X79.695 Y102.666 E.02573
G1 X78.842 Y102.067 E.03267
G1 X76.594 Y100.703 E.08247
G1 X76.171 Y100.422 E.01591
G1 X75.598 Y100.021 E.02193
G1 X75.077 Y99.535 E.02234
G1 X75.737 Y99.251 E.02254
G1 X76.412 Y99.067 E.02192
G1 X78.439 Y98.646 E.06493
G1 X79.124 Y98.455 E.02228
G1 X79.618 Y98.217 E.01719
G1 X79.905 Y97.975 E.01177
G1 X80.092 Y97.686 E.0108
G1 X80.199 Y97.302 E.0125
G1 X80.17 Y96.83 E.01483
G1 X79.811 Y95.485 E.04366
G1 X79.71 Y94.946 E.01717
G1 X79.634 Y94.32 E.01977
G1 X79.584 Y93.183 E.0357
G1 X79.621 Y92.018 E.03653
G1 X79.605 Y91.575 E.01391
G1 X79.298 Y90.522 E.03439
G1 X79.12 Y89.663 E.02751
G1 X79.043 Y89.063 E.01897
G1 X78.948 Y87.849 E.03819
G1 X79.023 Y87.908 E.00301
G1 X79.335 Y87.941 E.00983
G1 X79.676 Y87.866 E.01097
G1 X79.781 Y87.787 E.0041
G1 X79.901 Y87.621 E.00644
G1 X79.956 Y87.383 E.00765
G1 X79.961 Y86.802 E.01823
G1 X79.876 Y85.127 E.05259
G1 X79.882 Y84.073 E.03306
G1 X79.909 Y83.511 E.01761
G1 X79.986 Y82.754 E.02386
G1 X80.113 Y82.024 E.02323
G1 X80.235 Y81.539 E.01568
G1 X80.549 Y80.575 E.03179
G1 X80.951 Y81.366 E.02783
G1 X81.137 Y81.498 E.00715
G1 X81.366 Y81.545 E.00734
G1 X81.422 Y81.536 E.00175
M204 P1000
G1 X81.422 Y81.158 F9000
M204 P800
;TYPE:External perimeter
G1 F1200
G1 X81.895 Y80.983 E.01582
G1 X81.953 Y80.836 E.00495
G1 X81.91 Y80.134 E.02206
G1 X81.928 Y79.441 E.02174
G1 X82.134 Y78.015 E.04516
G1 X82.351 Y77.14 E.02825
;WIDTH:0.443854
G1 X82.646 Y75.964 E.04043
G1 X82.783 Y75.185 E.02638
;WIDTH:0.425341
G1 X83.127 Y74.279 E.03081
G1 X83.129 Y75.335 E.03357
;WIDTH:0.443854
G1 X83.043 Y76.019 E.023
G1 X83.045 Y76.456 E.01456
;WIDTH:0.424371
G1 X83.189 Y76.641 E.00744
;WIDTH:0.419999
G1 X83.591 Y76.736 E.01295
G1 X83.738 Y76.649 E.00535
G1 X84.196 Y75.928 E.02678
G1 X84.903 Y74.618 E.04666
G1 X85.271 Y73.863 E.02635
G1 X85.911 Y72.428 E.04928
G1 X86.788 Y70.213 E.07468
G1 X87.328 Y68.719 E.04982
G1 X87.778 Y67.398 E.04375
G1 X88.076 Y66.414 E.03223
G1 X88.181 Y65.544 E.02748
G1 X88.269 Y65.25 E.00962
G1 X88.51 Y65.418 E.00919
G1 X88.72 Y65.822 E.01428
G1 X88.977 Y66.384 E.01937
G1 X89.96 Y67.95 E.05798
G1 X90.693 Y69.243 E.04661
G1 X91.399 Y70.59 E.0477
G1 X92.066 Y71.939 E.04718
G1 X92.749 Y73.387 E.0502
G1 X93.768 Y75.648 E.07773
G1 X93.848 Y75.735 E.00372
G1 X94.256 Y75.76 E.01283
G1 X94.392 Y75.656 E.00536
G1 X95.45 Y73.45 E.0767
G1 X95.75 Y72.633 E.02731
G1 X95.867 Y72.147 E.01566
G1 X96.069 Y71.725 E.01465
G1 X96.253 Y72.153 E.0146
G1 X96.428 Y72.972 E.02625
G1 X96.949 Y74.468 E.04968
G1 X97.278 Y75.5 E.03394
G1 X97.805 Y77.402 E.06188
G1 X98.181 Y78.938 E.04958
G1 X98.341 Y79.516 E.01882
G1 X98.398 Y79.607 E.00335
G1 X98.704 Y79.707 E.01011
G1 X98.906 Y79.63 E.00678
G1 X99.382 Y78.877 E.02793
G1 X99.703 Y78.473 E.01618
G1 X99.799 Y78.946 E.01515
G1 X99.761 Y79.363 E.01312
G1 X99.76 Y79.918 E.01739
G1 X100.019 Y82.226 E.07283
G1 X100.191 Y84.403 E.06847
G1 X100.24 Y84.516 E.00387
G1 X100.386 Y84.577 E.00494
G1 X101.326 Y84.542 E.02949
G1 X101.482 Y84.448 E.00573
G1 X101.836 Y83.834 E.02222
G1 X102.07 Y83.512 E.01248
G1 X102.1 Y83.642 E.00418
G1 X102.177 Y83.755 E.00432
G1 X102.269 Y83.783 E.00301
G1 X102.287 Y83.873 E.00286
G1 X102.258 Y84.407 E.01677
G1 X102.351 Y85.787 E.04336
G1 X102.333 Y86.562 E.02431
G1 X102.275 Y87.09 E.01667
G1 X102.151 Y87.745 E.0209
G1 X101.927 Y88.662 E.02958
G1 X101.736 Y89.16 E.01673
G1 X101.797 Y89.304 E.00492
G1 X102.247 Y89.415 E.01453
G1 X102.416 Y89.361 E.00555
G1 X102.697 Y89.071 E.01265
G1 X102.919 Y89.378 E.01187
G1 X103.066 Y90.409 E.03264
G1 X103.036 Y91.062 E.02051
G1 X102.874 Y91.651 E.01916
G1 X102.74 Y91.865 E.00791
G1 X102.695 Y91.998 E.00441
G1 X102.801 Y92.161 E.00612
G1 X102.88 Y92.18 E.00253
G1 X103.297 Y92.157 E.0131
G1 X103.32 Y92.402 E.0077
G1 X103.208 Y92.587 E.0068
G1 X103.199 Y92.732 E.00456
G1 X103.117 Y93.027 E.00958
G1 X102.531 Y94.105 E.03846
G1 X101.935 Y95.319 E.04241
G1 X101.475 Y96.351 E.03544
G1 X100.99 Y97.613 E.04239
G1 X101.252 Y99.785 E.0686
G1 X101.518 Y101.213 E.04552
G1 X101.578 Y101.316 E.00373
G1 X104.738 Y104.143 E.13296
G1 X105.004 Y104.668 E.01845
G1 X105.206 Y105.177 E.01718
G1 X105.342 Y105.778 E.01932
G1 X105.345 Y106.226 E.01405
G1 X105.26 Y106.652 E.0136
G1 X104.998 Y107.114 E.01667
G1 X104.568 Y107.597 E.02028
G1 X104.308 Y108.034 E.01593
G1 X104.253 Y108.527 E.01556
G1 X104.323 Y109.62 E.03434
G1 X104.21 Y110.206 E.01871
G1 X103.94 Y110.739 E.01872
G1 X103.188 Y111.901 E.04342
G1 X102.544 Y113.202 E.0455
G1 X102.379 Y113.376 E.00753
G1 X102.139 Y113.334 E.00763
G1 X101.665 Y113.085 E.01677
G1 X101.128 Y112.703 E.02066
G1 X99.968 Y111.769 E.04672
G1 X99.389 Y111.449 E.02073
G1 X98.91 Y111.252 E.01625
G1 X96.852 Y110.574 E.06793
G1 X95.997 Y110.254 E.02864
G1 X95.387 Y109.969 E.0211
G1 X94.782 Y109.558 E.02293
G1 X94.474 Y109.441 E.01034
G1 X93.352 Y109.319 E.03539
G1 X92.649 Y109.163 E.02258
G1 X92.371 Y109.258 E.00922
G1 X91.811 Y109.659 E.02159
G1 X91.143 Y109.889 E.02214
G1 X90.58 Y109.96 E.01781
G1 X89.932 Y109.953 E.0203
G1 X89.49 Y109.869 E.01411
G1 X89.287 Y109.519 E.01269
G1 X88.878 Y109.111 E.01811
G1 X88.347 Y108.703 E.021
G1 X87.47 Y108.122 E.033
G1 X86.239 Y107.387 E.04496
G1 X85.216 Y106.816 E.03673
G1 X83.585 Y105.954 E.05785
G1 X81.87 Y105.097 E.0601
G1 X81.284 Y104.757 E.02124
G1 X80.811 Y104.414 E.01832
G1 X80.051 Y103.494 E.03743
G1 X79.478 Y102.974 E.02424
G1 X78.647 Y102.39 E.03187
G1 X76.391 Y101.021 E.08271
